;FLAVOR:Marlin
;TIME:4095
;Filament used: 2.8713m
;Layer height: 0.2
;MINX:137.916
;MINY:136.399
;MINZ:0.2
;MAXX:211.985
;MAXY:213.6
;MAXZ:13
;Generated with Cura_SteamEngine 4.6.1
M140 S50
M105
M190 S50
M104 S210
M105
M109 S210
M82 ;absolute extrusion mode
M201 X500.00 Y500.00 Z100.00 E5000.00 ;Setup machine max acceleration
M203 X500.00 Y500.00 Z10.00 E50.00 ;Setup machine max feedrate
M204 P500.00 R1000.00 T500.00 ;Setup Print/Retract/Travel acceleration
M205 X8.00 Y8.00 Z0.40 E5.00 ;Setup Jerk
M220 S100 ;Reset Feedrate
M221 S100 ;Reset Flowrate

G28 ;Home
M420 S1 Z2 ;Enable ABL using saved Mesh and Fade Height

G92 E0 ;Reset Extruder
G1 Z2.0 F3000 ;Move Z Axis up
G1 X10.1 Y20 Z0.28 F5000.0 ;Move to start position
G1 X10.1 Y200.0 Z0.28 F1500.0 E15 ;Draw the first line
G1 X10.4 Y200.0 Z0.28 F5000.0 ;Move to side a little
G1 X10.4 Y20 Z0.28 F1500.0 E30 ;Draw the second line
G92 E0 ;Reset Extruder
G1 Z2.0 F3000 ;Move Z Axis up

G92 E0
G92 E0
G1 F1800 E-4.1
;LAYER_COUNT:65
;LAYER:0
M107
G0 F6000 X201.805 Y136.41 Z0.2
;TYPE:SKIRT
G1 F1800 E0.08315
G1 F1200 X202.707 Y136.463 E0.1132
G1 X203.6 Y136.595 E0.14323
G1 X204.478 Y136.806 E0.17326
G1 X205.334 Y137.094 E0.2033
G1 X206.161 Y137.456 E0.23333
G1 X206.953 Y137.891 E0.26338
G1 X207.704 Y138.393 E0.29342
G1 X208.678 Y139.208 E0.33566
G1 X208.794 Y139.318 E0.34098
G1 X209.421 Y139.967 E0.371
G1 X209.988 Y140.67 E0.40103
G1 X210.491 Y141.42 E0.43107
G1 X210.925 Y142.212 E0.46111
G1 X211.288 Y143.039 E0.49115
G1 X211.576 Y143.895 E0.52119
G1 X211.788 Y144.773 E0.55123
G1 X211.921 Y145.666 E0.58126
G1 X211.973 Y146.521 E0.60975
G1 X211.985 Y147.234 E0.63346
G1 X211.984 Y202.55 E2.47328
G1 X211.973 Y203.416 E2.50209
G1 X211.921 Y204.318 E2.53214
G1 X211.789 Y205.211 E2.56216
G1 X211.578 Y206.09 E2.59223
G1 X211.291 Y206.946 E2.62226
G1 X210.929 Y207.773 E2.65228
G1 X210.495 Y208.565 E2.68232
G1 X209.993 Y209.316 E2.71237
G1 X209.427 Y210.02 E2.74241
G1 X208.938 Y210.538 E2.7661
G1 X208.277 Y211.154 E2.79615
G1 X207.565 Y211.709 E2.82618
G1 X206.806 Y212.198 E2.85621
G1 X206.006 Y212.619 E2.88628
G1 X205.173 Y212.967 E2.9163
G1 X204.312 Y213.24 E2.94635
G1 X203.431 Y213.436 E2.97636
G1 X202.535 Y213.553 E3.00642
G1 X201.845 Y213.588 E3.0294
G1 X201.105 Y213.6 E3.05401
G1 X157.635 Y213.599 E4.49983
G1 X156.937 Y213.589 E4.52305
G1 X156.035 Y213.536 E4.5531
G1 X155.142 Y213.404 E4.58313
G1 X154.264 Y213.193 E4.61316
G1 X153.408 Y212.905 E4.6432
G1 X152.581 Y212.543 E4.67322
G1 X151.789 Y212.108 E4.70328
G1 X151.038 Y211.606 E4.73332
G1 X150.423 Y211.116 E4.75948
G1 X150.307 Y211.016 E4.76457
G1 X149.65 Y210.396 E4.79462
G1 X149.05 Y209.721 E4.82465
G1 X148.512 Y208.996 E4.85468
G1 X148.041 Y208.225 E4.88473
G1 X147.639 Y207.416 E4.91478
G1 X147.311 Y206.575 E4.9448
G1 X147.102 Y205.883 E4.96884
G1 X147.041 Y205.651 E4.97682
G1 X146.339 Y203.127 E5.06396
G1 X145.584 Y200.684 E5.149
G1 X144.772 Y198.297 E5.23286
G1 X143.887 Y195.923 E5.31713
G1 X142.929 Y193.554 E5.40212
G1 X141.917 Y191.246 E5.48594
G1 X140.453 Y188.148 E5.59991
G1 X140.125 Y187.372 E5.62793
G1 X139.783 Y186.455 E5.66048
G1 X139.487 Y185.619 E5.68998
G1 X139.26 Y184.95 E5.71348
G1 X139.018 Y184.124 E5.7421
G1 X138.806 Y183.265 E5.77153
G1 X138.569 Y182.246 E5.80633
G1 X138.414 Y181.537 E5.83047
G1 X138.261 Y180.653 E5.86031
G1 X138.149 Y179.763 E5.89014
G1 X138.049 Y178.875 E5.91986
G1 X137.977 Y178.158 E5.94383
G1 X137.927 Y177.279 E5.97311
G1 X137.916 Y176.413 E6.00192
G1 X137.917 Y175.471 E6.03325
G1 X137.927 Y174.773 E6.05647
G1 X137.971 Y173.962 E6.08348
G1 X138.051 Y173.133 E6.11118
G1 X138.173 Y172.039 E6.14779
G1 X138.253 Y171.401 E6.16918
G1 X138.401 Y170.53 E6.19857
G1 X138.596 Y169.626 E6.22932
G1 X138.807 Y168.712 E6.26052
G1 X139.022 Y167.858 E6.28981
G1 X139.119 Y167.507 E6.30193
G1 X139.302 Y166.915 E6.32253
G1 X139.51 Y166.311 E6.34378
G1 X139.846 Y165.372 E6.37695
G1 X140.094 Y164.701 E6.40075
G1 X140.38 Y164.005 E6.42577
G1 X141.523 Y161.499 E6.51738
G1 X142.508 Y159.162 E6.60173
G1 X143.439 Y156.774 E6.68698
G1 X144.283 Y154.403 E6.77069
G1 X145.068 Y151.986 E6.85521
G1 X145.784 Y149.553 E6.93957
G1 X146.423 Y147.126 E7.02304
G1 X147.009 Y144.603 E7.10919
G1 X147.394 Y143.329 E7.15345
G1 X147.481 Y143.097 E7.16169
G1 X147.836 Y142.266 E7.19175
G1 X148.262 Y141.47 E7.22178
G1 X148.757 Y140.714 E7.25183
G1 X149.317 Y140.006 E7.28186
G1 X150.025 Y139.265 E7.31594
G1 X150.098 Y139.196 E7.31929
G1 X150.782 Y138.606 E7.34933
G1 X151.514 Y138.078 E7.37935
G1 X152.291 Y137.617 E7.4094
G1 X153.105 Y137.226 E7.43943
G1 X153.951 Y136.909 E7.46948
G1 X154.821 Y136.668 E7.49951
G1 X155.709 Y136.505 E7.52954
G1 X156.922 Y136.411 E7.57
G1 X157.662 Y136.399 E7.59462
G1 X201.107 Y136.4 E9.0396
G1 X201.805 Y136.41 E9.06282
G1 F1800 E4.96282
G0 F6000 X165.065 Y165.52
G1 F1800 E9.14597
G1 F1200 X165.343 Y165.405 E9.15598
G1 X165.435 Y165.838 E9.1707
G1 X165.178 Y165.911 E9.17959
G1 X165.065 Y165.52 E9.19312
G0 F6000 X164.58 Y165.287
G1 F1200 X165.634 Y164.852 E9.23105
G1 X165.878 Y165.999 E9.27005
G1 X165.884 Y166.151 E9.27511
G1 X165.678 Y166.186 E9.28206
G1 X164.944 Y166.393 E9.30743
G1 X164.903 Y166.407 E9.30887
G1 X164.58 Y165.287 E9.34764
G1 F1800 E5.24764
G0 F6000 X162.026 Y165.975
G1 F1800 E9.43079
G1 F1200 X162.5 Y167.248 E9.47597
G1 X162.538 Y167.312 E9.47844
G1 X162.632 Y167.416 E9.48311
G1 X160.783 Y168.32 E9.55156
G1 X159.838 Y167.679 E9.58954
G1 X160.437 Y167.07 E9.61795
G1 X160.863 Y166.649 E9.63787
G1 X162.026 Y165.975 E9.68258
G0 F6000 X161.816 Y166.559
G1 F1200 X162.072 Y167.246 E9.70696
G1 X160.817 Y167.859 E9.75342
G1 X160.46 Y167.617 E9.76776
G1 X160.718 Y167.355 E9.77999
G1 X161.108 Y166.969 E9.79824
G1 X161.816 Y166.559 E9.82546
G1 F1800 E5.72546
G0 F6000 X161.149 Y169.882
G0 X160.696 Y170.427
G0 X159.54 Y170.6
G1 F1800 E9.90861
G1 F1200 X159.474 Y170.694 E9.91243
G1 X159.096 Y171.364 E9.93801
G1 X157.822 Y170.67 E9.98626
G1 X158.325 Y169.808 E10.01946
G1 X159.54 Y170.6 E10.0677
G0 F6000 X158.997 Y170.723
G1 F1200 X158.939 Y170.827 E10.07166
G1 X158.374 Y170.516 E10.09311
G1 X158.458 Y170.372 E10.09865
G1 X158.997 Y170.723 E10.12005
G1 F1800 E6.02005
G0 F6000 X159.538 Y172.474
G0 X158.942 Y177.201
G0 X158.249 Y178.133
G1 F1800 E10.2032
G1 F1200 X158.272 Y178.26 E10.20749
G1 X158.452 Y178.907 E10.22983
G1 X157.266 Y179.249 E10.27088
G1 X157.017 Y178.399 E10.30034
G1 X158.249 Y178.133 E10.34226
G0 F6000 X157.953 Y178.606
G1 F1200 X157.96 Y178.632 E10.34316
G1 X157.538 Y178.753 E10.35776
G1 X157.522 Y178.699 E10.35963
G1 X157.953 Y178.606 E10.3743
G1 F1800 E6.2743
G0 F6000 X159.55 Y179.387
G0 X162.512 Y183.263
G0 X162.672 Y184.399
G1 F1800 E10.45745
G1 F1200 X162.77 Y184.467 E10.46141
G1 X163.417 Y184.786 E10.48541
G1 X162.556 Y186.639 E10.55337
G1 X161.807 Y186.257 E10.58133
G1 X161.554 Y186.105 E10.59115
G1 X162.495 Y184.647 E10.64886
G1 X162.672 Y184.399 E10.659
G0 F6000 X162.791 Y184.925
G1 F1200 X162.889 Y184.973 E10.66263
G1 X162.368 Y186.094 E10.70374
G1 X162.119 Y185.967 E10.71304
G1 X162.791 Y184.925 E10.75428
G1 F1800 E6.65428
G0 F6000 X164.489 Y184.37
G0 X169.321 Y185.012
G0 X170.898 Y185.495
G1 F1800 E10.83743
G1 F1200 X171.282 Y186.871 E10.88494
G1 X170.53 Y187.07 E10.91081
G1 X170.247 Y185.695 E10.95751
G1 X170.351 Y185.676 E10.96102
G1 X170.898 Y185.495 E10.98019
G1 F1800 E6.88019
G0 F6000 X171.398 Y184.434
G0 X175.328 Y181.475
G0 X176.829 Y180.648
G1 F1800 E11.06334
G1 F1200 X178.25 Y181.47 E11.11794
G1 X177.85 Y182.12 E11.14332
G1 X176.478 Y181.294 E11.19659
G1 X176.562 Y181.172 E11.20151
G1 X176.829 Y180.648 E11.22107
G1 F1800 E7.12107
G0 F6000 X176.608 Y180.023
G0 X172.693 Y167.103
G1 F1800 E11.30422
G1 F1200 X173.366 Y165.789 E11.35333
G1 X174.158 Y166.222 E11.38335
G1 X173.399 Y167.487 E11.43241
G1 X173.266 Y167.394 E11.43781
G1 X172.693 Y167.103 E11.45919
G0 F6000 X173.233 Y166.927
G1 F1200 X173.535 Y166.337 E11.48123
G1 X173.602 Y166.373 E11.48376
G1 X173.263 Y166.942 E11.50579
G1 X173.233 Y166.927 E11.50691
G1 F1800 E7.40691
G0 F6000 X171.607 Y167.503
G0 X170.954 Y167.249
G0 X170.651 Y166.761
G0 X170.713 Y166.033
G0 X171.34 Y164.684
G0 X156.719 Y147.351
G0 X157.184 Y147.351
G1 F1800 E11.59006
G1 F1200 X157.183 Y146.799 E11.60842
G1 X201.585 Y146.799 E13.08523
G1 X201.584 Y203.2 E14.96114
G1 X201.033 Y203.2 E14.97946
G1 X201.174 Y203.141 E14.98455
G1 X201.525 Y202.79 E15.00106
G1 X201.584 Y202.649 E15.00614
G1 X201.585 Y147.35 E16.84539
G1 X201.526 Y147.209 E16.85048
G1 X201.175 Y146.858 E16.86699
G1 X201.034 Y146.799 E16.87207
G1 X157.735 Y146.8 E18.3122
G1 X157.594 Y146.859 E18.31728
G1 X157.243 Y147.21 E18.33379
G1 X157.184 Y147.351 E18.33888
G1 F1800 E14.23888
G0 F6000 X156.719 Y147.351
G0 X148.234 Y170.262
G0 X147.712 Y172.537
G0 X147.452 Y174.881
G0 X147.453 Y177.178
G0 X147.715 Y179.479
G0 X148.272 Y181.871
G0 X148.896 Y183.622
G0 X156.341 Y200.971
G0 X156.795 Y200.872
G1 F1800 E18.42203
G1 F1200 X157.209 Y202.776 E18.48684
G1 X157.278 Y202.888 E18.49121
G1 X157.605 Y203.155 E18.50525
G1 X157.731 Y203.2 E18.5097
G1 X157.144 Y203.2 E18.52923
G1 X156.983 Y202.467 E18.55419
G1 X156.738 Y201.099 E18.60041
G1 X156.795 Y200.872 E18.60819
G0 F6000 X157.53 Y200.539
;TYPE:SUPPORT-INTERFACE
G1 F1200 X157.862 Y202.065 E18.66014
G1 X158.518 Y202.6 E18.68829
G1 X200.281 Y202.6 E20.07733
G1 X200.984 Y201.897 E20.1104
G1 X200.984 Y148.102 E21.89963
G1 X200.281 Y147.399 E21.9327
G1 X158.487 Y147.4 E23.32277
G1 X157.785 Y148.102 E23.35579
G1 X157.776 Y150.894 E23.44865
G1 X157.717 Y151.114 E23.45623
G1 X157.569 Y151.115 E23.46115
G1 X157.546 Y151.114 E23.46192
G1 X157.584 Y150.97 E23.46687
G1 X157.584 Y147.433 E23.58451
G1 X157.817 Y147.2 E23.59547
G1 X200.952 Y147.199 E25.03015
G1 X201.185 Y147.432 E25.04111
G1 X201.184 Y202.567 E26.87491
G1 X200.951 Y202.8 E26.88587
G1 X157.802 Y202.8 E28.32101
G1 X157.584 Y202.622 E28.33037
G1 X156.364 Y197.015 E28.52122
G1 X156.452 Y196.685 E28.53258
G1 X156.18 Y195.184 E28.58332
G1 X157.53 Y200.539 E28.767
G1 F1800 E24.667
G0 F6000 X156.305 Y200.806
G0 X149.044 Y184.034
G0 X148.272 Y181.871
G0 X147.715 Y179.479
G0 X147.453 Y177.178
G0 X147.452 Y174.881
G0 X147.712 Y172.537
G0 X148.275 Y170.119
G0 X148.491 Y169.513
G0 X156.719 Y147.71
G0 X157.892 Y147.71
G1 F1800 E28.85015
G1 F1200 X157.783 Y147.6 E28.8553
G0 F6000 X157.783 Y147.687
G1 F1200 X158.07 Y147.399 E28.86882
G1 F1800 E24.76882
;MESH:FanShroud4.stl
G0 F6000 X158.069 Y146.335
G0 X171.378 Y164.565
G0 X172.609 Y163.328
G0 X176.143 Y165.683
G0 X176.008 Y165.938
G0 X175.378 Y166.521
;TYPE:WALL-OUTER
G1 F1800 E28.95197
G1 F1200 X175.403 Y166.634 E28.95582
G1 X174.411 Y168.221 E29.01807
G1 X174.373 Y168.189 E29.01972
G1 X174.421 Y168.124 E29.02241
G1 X175.378 Y166.521 E29.0845
G1 F1800 E24.9845
G0 F6000 X175.976 Y165.97
G0 X176.331 Y165.828
G0 X178.478 Y167.948
G0 X179.846 Y170.488
G0 X180.976 Y174.921
G0 X181.085 Y177.663
G0 X180.195 Y181.037
G0 X178.649 Y183.568
G0 X178.012 Y184.423
G0 X176.04 Y186.414
G0 X173.723 Y187.755
G0 X170.378 Y188.601
G0 X169.236 Y188.782
;TYPE:WALL-INNER
G1 F1800 E29.16765
G1 F1200 X169.255 Y188.883 E29.17107
G1 X170.03 Y188.855 E29.19686
G1 X173.198 Y188.018 E29.30585
G1 X173.136 Y187.739 E29.31535
G1 X173.273 Y187.782 E29.31577
G1 X173.742 Y187.933 E29.33216
G1 X176.139 Y186.543 E29.42432
G1 X177.571 Y185.086 E29.49227
G1 X178.204 Y184.469 E29.52167
G1 X178.113 Y184.194 E29.5313
G1 X178.098 Y184.151 E29.53282
G1 X178.148 Y184.182
G1 X178.771 Y183.675 E29.55953
G1 X180.416 Y181.001 E29.66395
G1 X180.147 Y180.774 E29.67566
G1 X179.985 Y180.637 E29.68271
G1 X180.36 Y180.52 E29.69054
G1 X181.094 Y178.279 E29.76897
G1 X181.248 Y177.679 E29.78958
G1 X181.131 Y175.663 E29.85674
G1 X181.144 Y174.82 E29.88478
G1 X180.781 Y174.631 E29.8984
G1 X180.773 Y173.995 E29.91955
G1 X179.914 Y170.863 E30.02757
G1 X179.793 Y170.884 E30.03165
G1 X179.836 Y170.815
G1 X180.037 Y170.496 E30.04372
G1 X178.926 Y168.383 E30.12312
G1 X178.607 Y167.85 E30.14378
G1 X178.497 Y167.735 E30.14907
G1 X177.091 Y166.439 E30.21267
G1 X176.379 Y165.627 E30.24859
G1 X176.382 Y165.618 E30.24891
G1 X175.609 Y165.19 E30.2783
G1 X172.701 Y163.602 E30.3885
G1 X172.692 Y163.597 E30.38884
G1 X172.64 Y163.698 E30.39098
G1 X172.523 Y163.926 E30.39782
G1 X172.46 Y163.651 E30.40076
G1 X172.448 Y163.6
G1 X170.307 Y162.868 E30.47602
G1 X169.745 Y162.726 E30.4953
G1 X167.632 Y162.721 E30.56557
G1 X166.884 Y162.759 E30.59049
G1 X166.848 Y162.856 E30.59393
G1 X166.83 Y162.771 E30.59397
G1 X166.787 Y162.569 E30.60053
G1 X166.723 Y162.6
G1 X165.831 Y163.039 E30.63359
G1 X163.171 Y164.138 E30.72932
G1 X162.703 Y164.346 E30.74635
G1 X162.523 Y164.228 E30.75351
G1 X162.188 Y164.037 E30.76634
G1 X161.743 Y164.29 E30.78336
G1 X159.884 Y165.368 E30.85484
G1 X159.308 Y165.936 E30.88174
G1 X158.571 Y166.685 E30.91669
G1 X157.81 Y167.428 E30.95207
G1 X157.87 Y167.572 E30.95725
G1 X157.935 Y167.726 E30.96281
G1 X157.789 Y167.645 E30.96573
G1 X157.788 Y167.644 E30.96578
G1 X157.713 Y167.603 E30.96767
G1 X157.481 Y167.474 E30.9765
G1 X157.46 Y167.557 E30.97896
G1 X157.188 Y168.59 E31.01449
G1 X155.613 Y171.279 E31.11814
G1 X155.896 Y171.435 E31.12889
G1 X155.654 Y171.482 E31.13047
G1 X155.495 Y171.514 E31.1331
G1 X155.201 Y172.614 E31.17097
G1 X155.086 Y173.094 E31.18739
G1 X155.052 Y173.166 E31.19004
G1 X154.769 Y174.237 E31.22688
G1 X154.912 Y176.192 E31.29208
G1 X154.902 Y177.193 E31.32537
G1 X154.806 Y177.212 E31.32863
G1 X154.816 Y177.234
G1 X155.302 Y178.231 E31.36552
G1 X156.168 Y181.192 E31.46813
G1 X155.939 Y181.575 E31.48297
G1 X157.389 Y184.026 E31.57769
G1 X157.471 Y184.13 E31.58209
G1 X157.937 Y184.605 E31.60422
G1 X159.561 Y186.243 E31.68094
G1 X159.391 Y186.506 E31.69136
G1 X159.937 Y186.917 E31.71409
G1 X160.521 Y187.349 E31.73825
G1 X161.05 Y187.667 E31.75878
G1 X163.123 Y188.724 E31.83617
G1 X163.124 Y188.725 E31.83622
G1 X163.306 Y188.817 E31.843
G1 X163.392 Y188.631 E31.84736
G1 X163.488 Y188.425 E31.85492
G1 X165.742 Y189.048 E31.9327
G1 X166.275 Y189.189 E31.95104
G1 X168.159 Y189.15 E32.01371
G1 X168.937 Y189.161 E32.03959
G1 X169.194 Y188.836 E32.05337
G1 X169.236 Y188.782
G1 F1800 E27.95337
G0 F6000 X169.349 Y188.315
G0 X169.063 Y185.896
;TYPE:WALL-OUTER
G1 F1800 E32.13652
G1 F1200 X169.444 Y187.748 E32.19941
G1 X169.583 Y188.471 E32.2239
G1 X169.971 Y188.457 E32.23681
G1 X172.724 Y187.73 E32.33151
G1 X172.549 Y186.947 E32.3582
G1 X172.035 Y185.1 E32.42197
G1 X172.136 Y185.057 E32.42562
G1 X172.34 Y185.302 E32.43622
G1 X172.945 Y187.258 E32.50432
G1 X173.695 Y187.498 E32.53051
G1 X175.892 Y186.224 E32.61498
G1 X177.292 Y184.8 E32.6814
G1 X177.745 Y184.358 E32.70245
G1 X177.502 Y183.63 E32.72797
G1 X175.93 Y182.564 E32.79115
G1 X175.737 Y182.325 E32.80136
G1 X175.781 Y182.273 E32.80363
G1 X177.512 Y183.316 E32.87085
G1 X178.117 Y183.692 E32.89454
G1 X178.466 Y183.408 E32.9095
G1 X179.895 Y181.085 E33.00022
G1 X179.706 Y180.926 E33.00843
G1 X177.355 Y179.566 E33.09877
G1 X177.385 Y179.491 E33.10145
G1 X177.688 Y179.53 E33.11161
G1 X179.297 Y180.434 E33.173
G1 X180.044 Y180.2 E33.19903
G1 X180.71 Y178.167 E33.27019
G1 X180.845 Y177.64 E33.28828
G1 X180.731 Y175.666 E33.35405
G1 X180.74 Y175.061 E33.37417
G1 X180.141 Y174.749 E33.39663
G1 X178.302 Y175.06 E33.45867
G1 X177.998 Y175.024 E33.46885
G1 X177.991 Y174.947 E33.47142
G1 X180.38 Y174.533 E33.55206
G1 X180.374 Y174.051 E33.5681
G1 X179.624 Y171.319 E33.66233
G1 X179.376 Y171.362 E33.6707
G1 X178.824 Y171.489 E33.68954
G1 X177.207 Y171.927 E33.74526
G1 X177.183 Y171.873 E33.74722
G1 X177.433 Y171.708 E33.75718
G1 X179.166 Y171.13 E33.81795
G1 X179.576 Y170.478 E33.84356
G1 X178.577 Y168.579 E33.91493
G1 X178.287 Y168.094 E33.93372
G1 X178.217 Y168.021 E33.93709
G1 X176.801 Y166.715 E34.00116
G1 X176.265 Y166.104 E34.02819
G1 X175.426 Y166.441 E34.05826
G1 X175.827 Y165.768 E34.08432
G1 X175.416 Y165.541 E34.09994
G1 X172.861 Y164.145 E34.19677
G1 X171.612 Y166.58 E34.28779
G1 X171.535 Y166.55 E34.29054
G1 X171.562 Y166.241 E34.30086
G1 X172.288 Y164.688 E34.35788
G1 X172.108 Y163.907 E34.38453
G1 X170.193 Y163.252 E34.45185
G1 X169.695 Y163.126 E34.46894
G1 X167.642 Y163.121 E34.53722
G1 X167.167 Y163.145 E34.55304
