;FLAVOR:Marlin
;TIME:2195
;Filament used: 1.26211m
;Layer height: 0.2
;MINX:139.901
;MINY:147.53
;MINZ:0.2
;MAXX:210.089
;MAXY:202.492
;MAXZ:13
;Generated with Cura_SteamEngine 4.6.1
M140 S50
M105
M190 S50
M104 S200
M105
M109 S200
M82 ;absolute extrusion mode
M201 X500.00 Y500.00 Z100.00 E5000.00 ;Setup machine max acceleration
M203 X500.00 Y500.00 Z10.00 E50.00 ;Setup machine max feedrate
M204 P500.00 R1000.00 T500.00 ;Setup Print/Retract/Travel acceleration
M205 X8.00 Y8.00 Z0.40 E5.00 ;Setup Jerk
M220 S100 ;Reset Feedrate
M221 S100 ;Reset Flowrate

G28 ;Home
M420 S1 Z2 ;Enable ABL using saved Mesh and Fade Height

G92 E0 ;Reset Extruder
G1 Z2.0 F3000 ;Move Z Axis up
G1 X10.1 Y20 Z0.28 F5000.0 ;Move to start position
G1 X10.1 Y200.0 Z0.28 F1500.0 E15 ;Draw the first line
G1 X10.4 Y200.0 Z0.28 F5000.0 ;Move to side a little
G1 X10.4 Y20 Z0.28 F1500.0 E30 ;Draw the second line
G92 E0 ;Reset Extruder
G1 Z2.0 F3000 ;Move Z Axis up

G92 E0
G92 E0
G1 F1800 E-4.1
;LAYER_COUNT:65
;LAYER:0
M107
G0 F6000 X164.863 Y148.065 Z0.2
;TYPE:SKIRT
G1 F1800 E0.08315
G1 F1200 X167.396 Y148.071 E0.1674
G1 X170 Y148.003 E0.25404
G1 X171.425 Y147.937 E0.30148
G1 X172.328 Y147.954 E0.33152
G1 X173.226 Y148.05 E0.36156
G1 X174.112 Y148.226 E0.39161
G1 X174.979 Y148.479 E0.42164
G1 X175.82 Y148.808 E0.45168
G1 X176.449 Y149.112 E0.47492
G1 X176.813 Y149.304 E0.4886
G1 X177.592 Y149.76 E0.51863
G1 X178.328 Y150.284 E0.54868
G1 X179.015 Y150.87 E0.57871
G1 X179.625 Y151.49 E0.60764
G1 X181.357 Y153.402 E0.69344
G1 X182.396 Y154.527 E0.74438
G1 X183.84 Y156.142 E0.81643
G1 X185.578 Y158.015 E0.90142
G1 X187.359 Y159.825 E0.98588
G1 X189.22 Y161.613 E1.07171
G1 X191.074 Y163.297 E1.15502
G1 X193 Y164.95 E1.23943
G1 X194.992 Y166.562 E1.32466
G1 X197.011 Y168.104 E1.40916
G1 X199.038 Y169.565 E1.49227
G1 X201.169 Y171.01 E1.5779
G1 X203.751 Y172.647 E1.67958
G1 X204.691 Y173.221 E1.71622
G1 X205.44 Y173.725 E1.74624
G1 X206.142 Y174.294 E1.7763
G1 X206.791 Y174.923 E1.80636
G1 X207.381 Y175.606 E1.83638
G1 X207.817 Y176.198 E1.86083
G1 X208.303 Y176.96 E1.89089
G1 X208.72 Y177.761 E1.92093
G1 X209.064 Y178.596 E1.95096
G1 X209.333 Y179.458 E1.981
G1 X209.525 Y180.34 E2.01102
G1 X209.638 Y181.237 E2.04109
G1 X209.655 Y181.446 E2.04806
G1 X209.689 Y182.259 E2.07513
G1 X209.689 Y183.119 E2.10373
G1 X209.592 Y190.219 E2.3399
G1 X209.573 Y190.91 E2.36289
G1 X209.508 Y191.811 E2.39294
G1 X209.364 Y192.703 E2.42299
G1 X209.142 Y193.578 E2.45302
G1 X208.843 Y194.43 E2.48305
G1 X208.338 Y195.502 E2.52246
G1 X208.151 Y195.846 E2.53548
G1 X207.825 Y196.407 E2.55706
G1 X207.327 Y197.16 E2.58709
G1 X206.764 Y197.866 E2.61712
G1 X206.14 Y198.519 E2.64716
G1 X205.192 Y199.324 E2.68853
G1 X204.591 Y199.774 E2.7135
G1 X204.163 Y200.078 E2.73096
G1 X203.944 Y200.225 E2.73973
G1 X203.172 Y200.695 E2.7698
G1 X202.362 Y201.094 E2.79983
G1 X201.52 Y201.421 E2.82987
G1 X200.653 Y201.671 E2.85988
G1 X199.766 Y201.844 E2.88994
G1 X198.591 Y201.951 E2.92918
G1 X197.678 Y201.978 E2.95956
G1 X189.072 Y202.083 E3.24582
G1 X187.893 Y202.072 E3.28504
G1 X185.254 Y202.03 E3.37282
G1 X183.11 Y202.068 E3.44414
G1 X181.181 Y202.09 E3.5083
G1 X175.007 Y202.092 E3.71365
G1 X155.562 Y202.066 E4.3604
G1 X154.852 Y202.055 E4.38401
G1 X153.653 Y201.965 E4.424
G1 X153.437 Y201.936 E4.43125
G1 X152.972 Y201.863 E4.44691
G1 X152.57 Y201.79 E4.4605
G1 X151.428 Y201.514 E4.49957
G1 X150.72 Y201.295 E4.52422
G1 X150.379 Y201.181 E4.53618
G1 X149.27 Y200.736 E4.57593
G1 X148.412 Y200.321 E4.60763
G1 X147.618 Y199.875 E4.63792
G1 X147.443 Y199.766 E4.64477
G1 X147.049 Y199.508 E4.66044
G1 X146.689 Y199.26 E4.67498
G1 X146.027 Y198.762 E4.70253
G1 X145.853 Y198.62 E4.71
G1 X145.465 Y198.287 E4.72701
G1 X145.155 Y198.007 E4.7409
G1 X144.606 Y197.472 E4.7664
G1 X144.466 Y197.325 E4.77315
G1 X144.091 Y196.91 E4.79175
G1 X143.807 Y196.577 E4.80631
G1 X143.115 Y195.667 E4.84433
G1 X142.882 Y195.322 E4.85818
G1 X142.41 Y194.552 E4.88822
G1 X142.186 Y194.123 E4.90431
G1 X141.735 Y193.208 E4.93824
G1 X141.523 Y192.75 E4.95503
G1 X141.378 Y192.415 E4.96717
G1 X141.057 Y191.571 E4.9972
G1 X140.818 Y190.732 E5.02622
G1 X140.696 Y190.221 E5.04369
G1 X140.574 Y189.652 E5.06305
G1 X140.406 Y188.489 E5.10213
G1 X140.362 Y187.979 E5.11916
G1 X140.326 Y187.302 E5.1417
G1 X140.301 Y185.931 E5.18731
G1 X140.301 Y182.488 E5.30183
G1 X140.333 Y180.7 E5.3613
G1 X140.383 Y179.698 E5.39467
G1 X140.429 Y179.133 E5.41353
G1 X140.527 Y178.187 E5.44516
G1 X140.569 Y177.831 E5.45708
G1 X140.617 Y177.48 E5.46887
G1 X140.803 Y176.267 E5.50968
G1 X140.861 Y175.924 E5.52125
G1 X140.952 Y175.441 E5.5376
G1 X141.11 Y174.743 E5.5614
G1 X141.834 Y171.98 E5.6564
G1 X142.169 Y170.631 E5.70263
G1 X142.655 Y168.784 E5.76616
G1 X142.902 Y167.915 E5.7962
G1 X143.227 Y166.874 E5.83248
G1 X143.547 Y165.907 E5.86635
G1 X143.932 Y164.805 E5.90518
G1 X144.508 Y163.303 E5.95868
G1 X144.968 Y162.163 E5.99957
G1 X145.288 Y161.428 E6.02623
G1 X145.731 Y160.463 E6.06155
G1 X146.002 Y159.906 E6.08215
G1 X146.549 Y158.82 E6.12259
G1 X146.859 Y158.224 E6.14494
G1 X147.311 Y157.442 E6.17498
G1 X147.694 Y156.884 E6.19749
G1 X148.171 Y156.236 E6.22425
G1 X148.377 Y155.965 E6.23557
G1 X149.466 Y154.587 E6.29399
G1 X149.926 Y154.02 E6.31828
G1 X150.508 Y153.363 E6.34747
G1 X150.881 Y152.977 E6.36532
G1 X152.627 Y151.216 E6.4478
G1 X153.175 Y150.703 E6.47277
G1 X153.329 Y150.569 E6.47956
G1 X154.035 Y150.007 E6.50957
G1 X154.789 Y149.51 E6.53961
G1 X155.462 Y149.141 E6.56513
G1 X155.66 Y149.042 E6.5725
G1 X156.485 Y148.674 E6.60254
G1 X157.339 Y148.381 E6.63257
G1 X158.216 Y148.164 E6.66262
G1 X158.699 Y148.079 E6.67893
G1 X158.997 Y148.034 E6.68896
G1 X159.895 Y147.939 E6.71899
G1 X160.962 Y147.93 E6.75448
G1 X162.247 Y147.986 E6.79726
G1 X164.863 Y148.065 E6.88431
G0 F6000 X164.876 Y147.665
G1 F1200 X167.422 Y147.671 E6.96899
G1 X169.927 Y147.605 E7.05233
G1 X171.415 Y147.538 E7.10188
G1 X172.335 Y147.554 E7.13248
G1 X173.251 Y147.65 E7.16311
G1 X174.155 Y147.825 E7.19374
G1 X175.04 Y148.077 E7.22434
G1 X175.9 Y148.406 E7.25497
G1 X176.635 Y148.758 E7.28207
G1 X176.999 Y148.95 E7.29576
G1 X177.794 Y149.415 E7.32639
G1 X178.546 Y149.947 E7.35703
G1 X179.249 Y150.541 E7.38764
G1 X179.921 Y151.222 E7.41946
G1 X181.651 Y153.131 E7.50515
G1 X182.694 Y154.261 E7.5563
G1 X184.123 Y155.859 E7.6276
G1 X185.873 Y157.745 E7.71317
G1 X187.639 Y159.539 E7.7969
G1 X189.483 Y161.312 E7.88198
G1 X191.34 Y162.998 E7.96541
G1 X193.263 Y164.649 E8.0497
G1 X195.24 Y166.248 E8.13428
G1 X197.225 Y167.765 E8.21737
G1 X199.29 Y169.253 E8.30202
G1 X201.378 Y170.668 E8.38592
G1 X203.968 Y172.311 E8.48793
G1 X204.9 Y172.88 E8.52425
G1 X205.664 Y173.393 E8.55486
G1 X206.381 Y173.971 E8.58549
G1 X207.044 Y174.609 E8.61609
G1 X207.65 Y175.302 E8.64671
G1 X208.047 Y175.83 E8.66868
G1 X208.144 Y175.968 E8.67429
G1 X208.64 Y176.744 E8.70493
G1 X209.067 Y177.56 E8.73556
G1 X209.422 Y178.409 E8.76616
G1 X209.702 Y179.286 E8.79678
G1 X209.904 Y180.184 E8.8274
G1 X210.037 Y181.205 E8.86164
G1 X210.054 Y181.414 E8.86862
G1 X210.089 Y182.258 E8.89671
G1 X210.089 Y183.124 E8.92552
G1 X209.992 Y190.23 E9.16188
G1 X209.973 Y190.921 E9.18488
G1 X209.908 Y191.84 E9.21552
G1 X209.763 Y192.749 E9.24613
G1 X209.54 Y193.642 E9.27675
G1 X209.24 Y194.513 E9.30739
G1 X208.69 Y195.693 E9.35069
G1 X208.503 Y196.037 E9.36371
G1 X208.168 Y196.613 E9.38587
G1 X207.661 Y197.381 E9.41648
G1 X207.089 Y198.102 E9.44709
G1 X206.456 Y198.771 E9.47772
G1 X205.432 Y199.644 E9.52248
G1 X204.831 Y200.094 E9.54745
G1 X204.386 Y200.41 E9.5656
G1 X204.167 Y200.557 E9.57438
G1 X203.381 Y201.037 E9.60501
G1 X202.556 Y201.446 E9.63564
G1 X201.699 Y201.782 E9.66625
G1 X200.816 Y202.043 E9.69688
G1 X199.914 Y202.226 E9.72749
G1 X198.604 Y202.35 E9.77125
G1 X197.683 Y202.378 E9.8019
G1 X189.071 Y202.483 E10.08836
G1 X187.875 Y202.472 E10.12814
G1 X185.255 Y202.43 E10.21529
G1 X183.115 Y202.468 E10.28648
G1 X181.181 Y202.49 E10.35081
G1 X175.007 Y202.492 E10.55616
G1 X155.556 Y202.466 E11.2031
G1 X154.846 Y202.455 E11.22672
G1 X153.6 Y202.362 E11.26828
G1 X153.384 Y202.333 E11.27552
G1 X152.9 Y202.256 E11.29182
G1 X152.498 Y202.183 E11.30541
G1 X151.312 Y201.897 E11.34599
G1 X150.593 Y201.674 E11.37103
G1 X150.252 Y201.56 E11.38299
G1 X149.1 Y201.098 E11.42427
G1 X148.232 Y200.678 E11.45634
G1 X147.407 Y200.214 E11.48782
G1 X147.232 Y200.105 E11.49468
G1 X146.823 Y199.837 E11.51094
G1 X146.463 Y199.589 E11.52548
G1 X145.774 Y199.072 E11.55413
G1 X145.6 Y198.93 E11.5616
G1 X145.197 Y198.584 E11.57927
G1 X144.887 Y198.304 E11.59316
G1 X144.316 Y197.748 E11.61967
G1 X144.176 Y197.601 E11.62642
G1 X143.787 Y197.169 E11.64576
G1 X143.503 Y196.836 E11.66032
G1 X142.784 Y195.891 E11.69981
G1 X142.551 Y195.546 E11.71366
G1 X142.069 Y194.761 E11.74429
G1 X141.827 Y194.299 E11.76164
G1 X141.376 Y193.384 E11.79557
G1 X141.156 Y192.909 E11.81298
G1 X141.011 Y192.574 E11.82512
G1 X140.682 Y191.714 E11.85575
G1 X140.429 Y190.825 E11.88649
G1 X140.307 Y190.314 E11.90396
G1 X140.182 Y189.732 E11.92376
G1 X140.007 Y188.523 E11.96439
G1 X139.963 Y188.013 E11.98142
G1 X139.926 Y187.31 E12.00483
G1 X139.901 Y185.931 E12.05071
G1 X139.901 Y182.482 E12.16542
G1 X139.924 Y180.995 E12.21488
G1 X139.934 Y180.682 E12.2253
G1 X139.984 Y179.669 E12.25903
G1 X140.031 Y179.092 E12.27829
G1 X140.172 Y177.784 E12.32204
G1 X140.221 Y177.419 E12.33429
G1 X140.407 Y176.206 E12.37511
G1 X140.468 Y175.85 E12.38712
G1 X140.559 Y175.367 E12.40347
G1 X140.723 Y174.642 E12.42819
G1 X141.451 Y171.864 E12.52371
G1 X141.782 Y170.529 E12.56946
G1 X142.27 Y168.677 E12.63316
G1 X142.52 Y167.796 E12.66362
G1 X142.847 Y166.749 E12.7001
G1 X143.169 Y165.776 E12.73419
G1 X143.558 Y164.664 E12.77337
G1 X143.657 Y164.401 E12.78272
G1 X144.136 Y163.154 E12.82715
G1 X144.601 Y162.004 E12.8684
G1 X144.924 Y161.262 E12.89532
G1 X145.371 Y160.288 E12.93096
G1 X145.645 Y159.727 E12.95173
G1 X146.194 Y158.636 E12.99235
G1 X146.504 Y158.04 E13.01469
G1 X146.964 Y157.242 E13.04533
G1 X147.371 Y156.647 E13.06931
G1 X147.848 Y155.999 E13.09607
G1 X148.063 Y155.717 E13.10786
G1 X149.155 Y154.335 E13.16645
G1 X149.615 Y153.768 E13.19073
G1 X150.22 Y153.085 E13.22108
G1 X150.597 Y152.696 E13.2391
G1 X152.343 Y150.935 E13.32158
G1 X152.912 Y150.401 E13.34753
G1 X153.066 Y150.267 E13.35432
G1 X153.786 Y149.694 E13.38492
G1 X154.553 Y149.185 E13.41554
G1 X155.284 Y148.783 E13.44329
G1 X155.482 Y148.684 E13.45065
G1 X156.322 Y148.308 E13.48126
G1 X157.192 Y148.007 E13.51188
G1 X158.085 Y147.783 E13.5425
G1 X158.639 Y147.684 E13.56122
G1 X158.937 Y147.639 E13.57124
G1 X159.853 Y147.541 E13.60188
G1 X160.979 Y147.53 E13.63934
G1 X162.276 Y147.586 E13.68251
G1 X164.876 Y147.665 E13.76903
G1 F1800 E9.66903
G0 F6000 X176.564 Y162.378
G0 X177.558 Y164.362
G0 X186.718 Y185.217
G0 X186.718 Y185.682
G1 F1800 E13.85218
G1 F1200 X195.653 Y185.682 E14.14936
G1 X195.621 Y188.004 E14.2266
G1 X189.249 Y188.088 E14.43855
G1 X188.913 Y187.989 E14.4502
G1 X188.367 Y187.911 E14.46854
G1 X188.002 Y187.903 E14.48069
G1 X186.718 Y187.938 E14.52341
G1 X186.718 Y185.682 E14.59844
G0 F6000 X186.318 Y185.282
G1 F1200 X196.058 Y185.282 E14.9224
G1 X196.016 Y188.399 E15.02608
G1 X189.207 Y188.489 E15.25257
G1 X188.745 Y188.363 E15.26849
G1 X188.013 Y188.303 E15.29292
G1 X186.318 Y188.349 E15.34932
G1 X186.318 Y185.282 E15.45133
G0 F6000 X185.918 Y184.882
G1 F1200 X196.464 Y184.882 E15.80209
G1 X196.411 Y188.794 E15.93222
G1 X189.134 Y188.89 E16.17427
G1 X189.057 Y188.857 E16.17706
G1 X188.581 Y188.74 E16.19336
G1 X188.023 Y188.703 E16.21196
G1 X185.918 Y188.76 E16.282
G1 X185.918 Y184.882 E16.41098
G0 F6000 X185.518 Y184.482
G1 F1200 X196.87 Y184.482 E16.78855
G1 X196.805 Y189.189 E16.94512
G1 X189.065 Y189.291 E17.20258
G1 X188.87 Y189.217 E17.20951
G1 X188.424 Y189.122 E17.22468
G1 X188.034 Y189.103 E17.23767
G1 X185.667 Y189.167 E17.31642
G1 X185.518 Y189.149 E17.32141
G1 X185.518 Y184.482 E17.47664
G0 F6000 X185.118 Y184.082
G1 F1200 X197.275 Y184.082 E17.88098
G1 X197.2 Y189.584 E18.064
G1 X188.977 Y189.691 E18.33752
G1 X188.687 Y189.581 E18.34783
G1 X188.274 Y189.509 E18.36178
G1 X188.045 Y189.503 E18.3694
G1 X185.662 Y189.567 E18.44868
G1 X185.249 Y189.519 E18.46251
G1 X185.118 Y189.517 E18.46687
G1 X185.118 Y184.082 E18.64764
G0 F6000 X184.718 Y183.682
G1 F1200 X197.681 Y183.682 E19.07879
G1 X197.595 Y189.978 E19.28822
G1 X188.9 Y190.091 E19.57744
G1 X188.511 Y189.949 E19.59121
G1 X188.056 Y189.903 E19.60642
G1 X185.637 Y189.968 E19.68691
G1 X185.244 Y189.919 E19.70008
G1 X184.718 Y189.912 E19.71758
G1 X184.718 Y183.682 E19.92479
G0 F6000 X184.318 Y183.282
G1 F1200 X198.086 Y183.282 E20.38271
G1 X197.991 Y190.252 E20.61456
G1 X197.811 Y190.376 E20.62183
G1 X189.081 Y190.491 E20.91221
G1 X188.789 Y190.492 E20.92192
G1 X188.663 Y190.418 E20.92678
G1 X188.343 Y190.323 E20.93789
G1 X188.066 Y190.303 E20.94712
G1 X185.602 Y190.369 E21.02911
G1 X185.524 Y190.352 E21.03176
G1 X185.239 Y190.319 E21.0413
G1 X184.444 Y190.309 E21.06775
G1 X184.343 Y190.314 E21.07111
G1 X184.318 Y190.314 E21.07194
G1 X184.318 Y183.282 E21.30583
G0 F6000 X183.918 Y182.882
G1 F1200 X198.492 Y182.882 E21.79056
G1 X198.39 Y190.375 E22.0398
G1 X198.303 Y190.523 E22.04551
G1 X197.939 Y190.774 E22.06022
G1 X188.702 Y190.892 E22.36747
G1 X188.463 Y190.769 E22.37641
G1 X188.077 Y190.702 E22.38944
G1 X185.558 Y190.77 E22.47325
G1 X185.437 Y190.743 E22.47737
G1 X185.234 Y190.719 E22.48417
G1 X184.439 Y190.709 E22.51062
G1 X184.337 Y190.714 E22.51401
G1 X183.918 Y190.71 E22.52795
G1 X183.918 Y182.882 E22.78831
G0 F6000 X183.518 Y182.482
G1 F1200 X198.897 Y182.482 E23.29982
G1 X198.788 Y190.484 E23.56599
G1 X198.603 Y190.802 E23.57823
G1 X198.065 Y191.172 E23.59994
G1 X188.556 Y191.292 E23.91624
G1 X188.467 Y191.224 E23.91996
G1 X188.272 Y191.126 E23.92722
G1 X188.088 Y191.102 E23.9334
G1 X185.523 Y191.171 E24.01874
G1 X185.351 Y191.133 E24.0246
G1 X185.229 Y191.119 E24.02868
G1 X183.518 Y191.105 E24.08559
G1 X183.518 Y182.482 E24.37239
G0 F6000 X183.118 Y182.082
G1 F1200 X199.257 Y182.082 E24.90918
G1 X199.298 Y182.144 E24.91165
G1 X199.187 Y190.594 E25.19272
G1 X198.908 Y191.073 E25.21116
G1 X198.192 Y191.571 E25.24017
G1 X188.421 Y191.692 E25.56518
G1 X188.225 Y191.543 E25.57337
G1 X188.099 Y191.502 E25.57777
G1 X185.483 Y191.572 E25.66481
G1 X185.264 Y191.524 E25.67227
G1 X184.429 Y191.509 E25.70005
G1 X184.362 Y191.515 E25.70228
G1 X183.244 Y191.502 E25.73947
G1 X183.118 Y191.513 E25.74368
G1 X183.118 Y182.082 E26.05736
G0 F6000 X171.525 Y167.476
G1 F1200 X171.319 Y166.768 E26.08188
G1 X171.507 Y166.203 E26.10168
G1 X171.92 Y165.236 E26.13666
G1 X172.274 Y164.155 E26.17449
G1 X172.332 Y163.798 E26.18652
G1 X172.372 Y162.335 E26.2352
G1 X172.367 Y162.285 E26.23687
G1 X172.291 Y161.957 E26.24807
G1 X172.166 Y161.544 E26.26242
G1 X173.604 Y162.934 E26.32894
G1 X173.223 Y164.463 E26.38135
G1 X172.775 Y165.51 E26.41923
G1 X171.961 Y166.823 E26.47061
G1 X171.525 Y167.476 E26.49672
G0 F6000 X172.093 Y165.851
G1 F1200 X172.307 Y165.343 E26.51506
G1 X172.653 Y164.284 E26.55211
G1 X172.678 Y164.18 E26.55567
G1 X172.734 Y163.784 E26.56897
G1 X172.763 Y162.678 E26.60577
G1 X173.16 Y163.061 E26.62412
G1 X172.842 Y164.334 E26.66776
G1 X172.419 Y165.325 E26.7036
G1 X172.093 Y165.851 E26.72418
G0 F6000 X169.179 Y169.445
G1 F1200 X166.779 Y170.373 E26.80976
G1 X165.768 Y170.545 E26.84387
G1 X165.425 Y170.463 E26.8556
G1 X164.72 Y170.322 E26.87952
G1 X163.735 Y169.899 E26.91517
G1 X162.816 Y169.497 E26.94853
G1 X162.914 Y169.144 E26.96072
G1 X163.697 Y169.642 E26.99158
G1 X164.456 Y169.896 E27.0182
G1 X164.64 Y169.966 E27.02475
G1 X165.564 Y170.138 E27.05601
G1 X166.656 Y170.116 E27.09234
G1 X167.368 Y169.96 E27.11658
G1 X168.347 Y169.7 E27.15027
G1 X168.685 Y169.555 E27.1625
G1 X169.117 Y169.227 E27.18054
G1 X169.179 Y169.445 E27.18808
G0 F6000 X160.641 Y167.281
G1 F1200 X160.506 Y167.017 E27.19794
G1 X159.679 Y165.414 E27.25794
G1 X159.057 Y164.536 E27.29372
G1 X159.115 Y164.409 E27.29837
G1 X159.12 Y164.253 E27.30356
G1 X158.727 Y163.231 E27.33998
G1 X158.473 Y162.631 E27.36165
G1 X158.917 Y162.168 E27.38298
G1 X160.088 Y161.081 E27.43613
