;FLAVOR:Marlin
;TIME:2175
;Filament used: 1.24606m
;Layer height: 0.2
;MINX:139.901
;MINY:147.529
;MINZ:0.2
;MAXX:210.092
;MAXY:202.492
;MAXZ:13
;Generated with Cura_SteamEngine 4.6.1
M140 S50
M105
M190 S50
M104 S200
M105
M109 S200
M82 ;absolute extrusion mode
M201 X500.00 Y500.00 Z100.00 E5000.00 ;Setup machine max acceleration
M203 X500.00 Y500.00 Z10.00 E50.00 ;Setup machine max feedrate
M204 P500.00 R1000.00 T500.00 ;Setup Print/Retract/Travel acceleration
M205 X8.00 Y8.00 Z0.40 E5.00 ;Setup Jerk
M220 S100 ;Reset Feedrate
M221 S100 ;Reset Flowrate

G28 ;Home
M420 S1 Z2 ;Enable ABL using saved Mesh and Fade Height

G92 E0 ;Reset Extruder
G1 Z2.0 F3000 ;Move Z Axis up
G1 X10.1 Y20 Z0.28 F5000.0 ;Move to start position
G1 X10.1 Y200.0 Z0.28 F1500.0 E15 ;Draw the first line
G1 X10.4 Y200.0 Z0.28 F5000.0 ;Move to side a little
G1 X10.4 Y20 Z0.28 F1500.0 E30 ;Draw the second line
G92 E0 ;Reset Extruder
G1 Z2.0 F3000 ;Move Z Axis up

G92 E0
G92 E0
G1 F1800 E-4.1
;LAYER_COUNT:65
;LAYER:0
M107
G0 F6000 X161.679 Y148.013 Z0.2
;TYPE:SKIRT
G1 F1800 E0.08315
G1 F1200 X164.261 Y148.089 E0.16907
G1 X166.768 Y148.093 E0.25245
G1 X170.095 Y147.99 E0.36316
G1 X171.045 Y147.946 E0.39479
G1 X171.438 Y147.936 E0.40786
G1 X172.34 Y147.953 E0.43787
G1 X173.238 Y148.05 E0.46791
G1 X174.124 Y148.226 E0.49796
G1 X174.991 Y148.48 E0.528
G1 X175.832 Y148.809 E0.55804
G1 X176.678 Y149.232 E0.5895
G1 X177.03 Y149.429 E0.60292
G1 X177.798 Y149.905 E0.63297
G1 X178.521 Y150.446 E0.663
G1 X179.193 Y151.05 E0.69305
G1 X179.607 Y151.48 E0.71291
G1 X180.633 Y152.612 E0.76372
G1 X182.06 Y154.157 E0.83367
G1 X183.334 Y155.576 E0.8971
G1 X183.632 Y155.918 E0.91219
G1 X185.338 Y157.769 E0.99591
G1 X187.12 Y159.597 E1.08082
G1 X188.935 Y161.355 E1.16486
G1 X190.805 Y163.068 E1.24921
G1 X192.721 Y164.723 E1.33342
G1 X194.713 Y166.35 E1.41896
G1 X196.722 Y167.897 E1.5033
G1 X198.739 Y169.362 E1.58621
G1 X200.886 Y170.831 E1.67274
G1 X203.007 Y172.195 E1.75661
G1 X204.581 Y173.155 E1.81793
G1 X205.247 Y173.598 E1.84454
G1 X205.395 Y173.705 E1.85061
G1 X206.103 Y174.266 E1.88065
G1 X206.758 Y174.887 E1.91067
G1 X207.356 Y175.564 E1.94072
G1 X207.892 Y176.292 E1.97079
G1 X208.367 Y177.075 E2.00125
G1 X208.425 Y177.181 E2.00527
G1 X208.823 Y177.992 E2.03531
G1 X209.148 Y178.834 E2.06533
G1 X209.397 Y179.702 E2.09537
G1 X209.568 Y180.589 E2.12541
G1 X209.672 Y181.743 E2.16395
G1 X209.687 Y182.201 E2.17919
G1 X209.692 Y182.535 E2.1903
G1 X209.691 Y183.01 E2.2061
G1 X209.594 Y190.171 E2.4443
G1 X209.574 Y190.902 E2.46862
G1 X209.51 Y191.803 E2.49866
G1 X209.365 Y192.694 E2.52869
G1 X209.143 Y193.57 E2.55874
G1 X208.844 Y194.422 E2.58877
G1 X208.474 Y195.239 E2.6186
G1 X208.373 Y195.438 E2.62603
G1 X208.109 Y195.924 E2.64442
G1 X207.912 Y196.265 E2.65752
G1 X207.426 Y197.027 E2.68758
G1 X206.875 Y197.742 E2.7176
G1 X206.262 Y198.406 E2.74766
G1 X205.291 Y199.254 E2.79054
G1 X204.779 Y199.647 E2.81201
G1 X204.298 Y199.994 E2.83173
G1 X204.002 Y200.195 E2.84363
G1 X203.233 Y200.669 E2.87368
G1 X202.425 Y201.073 E2.90372
G1 X201.585 Y201.404 E2.93375
G1 X200.719 Y201.659 E2.96378
G1 X199.833 Y201.837 E2.99384
G1 X198.56 Y201.953 E3.03635
G1 X197.661 Y201.977 E3.06626
G1 X188.871 Y202.088 E3.35864
G1 X186.975 Y202.062 E3.42171
G1 X186.295 Y202.044 E3.44434
G1 X183.714 Y202.047 E3.53018
G1 X182.872 Y202.069 E3.5582
G1 X181.27 Y202.09 E3.61148
G1 X175.924 Y202.092 E3.78929
G1 X155.567 Y202.066 E4.46637
G1 X154.847 Y202.055 E4.49032
G1 X153.946 Y202.001 E4.52034
G1 X153.315 Y201.915 E4.54152
G1 X152.719 Y201.815 E4.56162
G1 X151.476 Y201.526 E4.60407
G1 X150.936 Y201.364 E4.62282
G1 X150.358 Y201.175 E4.64304
G1 X149.274 Y200.739 E4.6819
G1 X148.864 Y200.546 E4.69698
G1 X148.407 Y200.318 E4.71396
G1 X147.708 Y199.928 E4.74059
G1 X147.515 Y199.81 E4.74811
G1 X147.049 Y199.508 E4.76658
G1 X146.689 Y199.26 E4.78112
G1 X145.769 Y198.544 E4.81989
G1 X145.36 Y198.187 E4.83795
G1 X144.578 Y197.428 E4.8742
G1 X144.111 Y196.923 E4.89707
G1 X143.528 Y196.234 E4.92709
G1 X143.167 Y195.737 E4.94752
G1 X142.856 Y195.28 E4.96591
G1 X142.382 Y194.511 E4.99595
G1 X142.104 Y193.976 E5.01601
G1 X141.71 Y193.16 E5.04615
G1 X141.531 Y192.769 E5.06045
G1 X141.379 Y192.417 E5.0732
G1 X141.058 Y191.573 E5.10323
G1 X140.823 Y190.749 E5.13173
G1 X140.692 Y190.202 E5.15044
G1 X140.575 Y189.656 E5.16901
G1 X140.406 Y188.485 E5.20836
G1 X140.361 Y187.962 E5.22582
G1 X140.325 Y187.278 E5.24861
G1 X140.302 Y185.967 E5.29222
G1 X140.301 Y182.485 E5.40803
G1 X140.324 Y180.992 E5.45769
G1 X140.334 Y180.683 E5.46797
G1 X140.384 Y179.679 E5.50141
G1 X140.432 Y179.095 E5.5209
G1 X140.571 Y177.814 E5.56375
G1 X140.662 Y177.181 E5.58502
G1 X141.028 Y174.55 E5.67337
G1 X141.307 Y172.031 E5.75767
G1 X141.419 Y170.753 E5.80034
G1 X141.496 Y169.939 E5.82753
G1 X141.621 Y169.045 E5.85756
G1 X141.902 Y167.899 E5.8968
G1 X142.288 Y166.654 E5.94016
G1 X142.524 Y165.943 E5.96507
G1 X142.891 Y164.888 E6.00222
G1 X143.051 Y164.456 E6.01755
G1 X143.519 Y163.241 E6.06085
G1 X143.992 Y162.073 E6.10276
G1 X144.245 Y161.493 E6.12381
G1 X144.453 Y161.034 E6.14057
G1 X144.732 Y160.466 E6.16162
G1 X145.452 Y159.112 E6.21262
G1 X145.831 Y158.429 E6.2386
G1 X146.196 Y157.793 E6.26299
G1 X146.752 Y156.929 E6.29717
G1 X147.222 Y156.275 E6.32395
G1 X148.277 Y154.853 E6.38284
G1 X148.74 Y154.246 E6.40824
G1 X149.348 Y153.521 E6.43971
G1 X149.605 Y153.242 E6.45232
G1 X149.869 Y152.966 E6.46503
G1 X151.375 Y151.451 E6.53608
G1 X151.827 Y151.009 E6.5571
G1 X152.5 Y150.407 E6.58713
G1 X153.223 Y149.867 E6.61715
G1 X154.142 Y149.31 E6.65289
G1 X154.409 Y149.167 E6.66296
G1 X155.223 Y148.777 E6.69299
G1 X156.069 Y148.46 E6.72303
G1 X156.939 Y148.218 E6.75307
G1 X157.845 Y148.053 E6.7837
G1 X158.138 Y148.013 E6.79353
G1 X159.038 Y147.93 E6.8236
G1 X159.964 Y147.929 E6.85439
G1 X160.992 Y147.974 E6.88862
G1 X161.679 Y148.013 E6.9115
G0 F6000 X161.714 Y147.614
G1 F1200 X164.238 Y147.689 E6.99549
G1 X166.756 Y147.693 E7.07924
G1 X170.121 Y147.589 E7.19121
G1 X171.034 Y147.546 E7.22161
G1 X171.427 Y147.536 E7.23469
G1 X172.348 Y147.553 E7.26533
G1 X173.263 Y147.649 E7.29593
G1 X174.167 Y147.825 E7.32656
G1 X175.052 Y148.078 E7.35717
G1 X175.912 Y148.407 E7.3878
G1 X176.874 Y148.883 E7.4235
G1 X177.226 Y149.08 E7.43691
G1 X178.009 Y149.564 E7.46753
G1 X178.747 Y150.114 E7.49814
G1 X179.435 Y150.727 E7.52879
G1 X179.903 Y151.211 E7.55118
G1 X180.913 Y152.326 E7.60122
G1 X182.357 Y153.89 E7.67202
G1 X183.635 Y155.314 E7.73566
G1 X183.894 Y155.611 E7.74877
G1 X185.653 Y157.521 E7.83513
G1 X187.402 Y159.314 E7.91844
G1 X189.2 Y161.056 E8.0017
G1 X191.071 Y162.769 E8.08608
G1 X192.994 Y164.43 E8.17059
G1 X194.948 Y166.026 E8.25451
G1 X196.95 Y167.569 E8.33857
G1 X198.978 Y169.041 E8.42192
G1 X201.107 Y170.498 E8.50773
G1 X203.238 Y171.868 E8.59199
G1 X204.789 Y172.814 E8.65241
G1 X205.481 Y173.274 E8.68005
G1 X205.629 Y173.381 E8.68612
G1 X206.351 Y173.952 E8.71674
G1 X207.021 Y174.584 E8.74737
G1 X207.633 Y175.271 E8.77798
G1 X208.184 Y176.009 E8.80861
G1 X208.718 Y176.883 E8.84267
G1 X208.776 Y176.989 E8.84669
G1 X209.182 Y177.815 E8.8773
G1 X209.516 Y178.673 E8.90793
G1 X209.773 Y179.557 E8.93855
G1 X209.953 Y180.46 E8.96917
G1 X210.071 Y181.73 E9.01159
G1 X210.086 Y182.188 E9.02684
G1 X210.092 Y182.535 E9.03838
G1 X210.091 Y183.015 E9.05434
G1 X209.994 Y190.182 E9.29274
G1 X209.974 Y190.913 E9.31706
G1 X209.909 Y191.831 E9.34767
G1 X209.764 Y192.74 E9.37829
G1 X209.541 Y193.634 E9.40893
G1 X209.242 Y194.504 E9.43953
G1 X208.83 Y195.42 E9.47294
G1 X208.729 Y195.619 E9.48036
G1 X208.455 Y196.124 E9.49947
G1 X208.258 Y196.465 E9.51257
G1 X207.764 Y197.242 E9.54319
G1 X207.203 Y197.972 E9.57381
G1 X206.582 Y198.652 E9.60444
G1 X205.904 Y199.274 E9.63504
G1 X205.534 Y199.572 E9.65085
G1 X205.022 Y199.965 E9.67231
G1 X204.523 Y200.325 E9.69278
G1 X204.227 Y200.526 E9.70468
G1 X203.443 Y201.01 E9.73532
G1 X202.621 Y201.424 E9.76593
G1 X201.766 Y201.765 E9.79655
G1 X200.884 Y202.03 E9.82718
G1 X199.983 Y202.218 E9.85779
G1 X199.069 Y202.327 E9.88841
G1 X198.571 Y202.353 E9.905
G1 X197.666 Y202.377 E9.93511
G1 X188.866 Y202.488 E10.22782
G1 X186.964 Y202.462 E10.29109
G1 X186.285 Y202.444 E10.31368
G1 X183.725 Y202.447 E10.39882
G1 X182.877 Y202.469 E10.42704
G1 X181.27 Y202.49 E10.48049
G1 X175.924 Y202.492 E10.6583
G1 X155.561 Y202.466 E11.33558
G1 X154.841 Y202.455 E11.35953
G1 X153.922 Y202.401 E11.39015
G1 X153.249 Y202.31 E11.41273
G1 X152.653 Y202.21 E11.43283
G1 X151.361 Y201.909 E11.47696
G1 X150.821 Y201.747 E11.49571
G1 X150.23 Y201.554 E11.51639
G1 X149.103 Y201.101 E11.55678
G1 X148.693 Y200.908 E11.57186
G1 X148.225 Y200.675 E11.58924
G1 X147.5 Y200.27 E11.61687
G1 X147.307 Y200.152 E11.62439
G1 X146.823 Y199.837 E11.6436
G1 X146.463 Y199.589 E11.65814
G1 X145.506 Y198.846 E11.69843
G1 X145.097 Y198.489 E11.71649
G1 X144.285 Y197.7 E11.75415
G1 X143.818 Y197.195 E11.77702
G1 X143.222 Y196.492 E11.80768
G1 X142.837 Y195.962 E11.82947
G1 X142.526 Y195.505 E11.84785
G1 X142.041 Y194.722 E11.87849
G1 X141.743 Y194.15 E11.89994
G1 X141.349 Y193.334 E11.93008
G1 X141.164 Y192.927 E11.94495
G1 X141.012 Y192.575 E11.9577
G1 X140.684 Y191.715 E11.98831
G1 X140.434 Y190.842 E12.01851
G1 X140.303 Y190.295 E12.03722
G1 X140.183 Y189.736 E12.05624
G1 X140.007 Y188.52 E12.0971
G1 X139.962 Y187.997 E12.11456
G1 X139.925 Y187.285 E12.13828
G1 X139.902 Y185.967 E12.18212
G1 X139.901 Y182.479 E12.29813
G1 X139.924 Y180.986 E12.34779
G1 X139.934 Y180.665 E12.35848
G1 X139.985 Y179.649 E12.39231
G1 X140.034 Y179.053 E12.4122
G1 X140.174 Y177.767 E12.45523
G1 X140.263 Y177.146 E12.47609
G1 X140.628 Y174.522 E12.56421
G1 X140.912 Y171.952 E12.65021
G1 X141.021 Y170.716 E12.69147
G1 X141.098 Y169.902 E12.71867
G1 X141.225 Y168.99 E12.7493
G1 X141.52 Y167.781 E12.79069
G1 X141.908 Y166.528 E12.83431
G1 X142.146 Y165.812 E12.85941
G1 X142.516 Y164.749 E12.89685
G1 X142.678 Y164.313 E12.91232
G1 X143.148 Y163.092 E12.95583
G1 X143.625 Y161.914 E12.9981
G1 X143.881 Y161.328 E13.01937
G1 X144.089 Y160.869 E13.03613
G1 X144.379 Y160.279 E13.058
G1 X145.102 Y158.918 E13.10926
G1 X145.484 Y158.23 E13.13543
G1 X145.849 Y157.594 E13.15982
G1 X146.426 Y156.696 E13.19532
G1 X146.9 Y156.037 E13.22232
G1 X147.959 Y154.61 E13.28142
G1 X148.422 Y154.003 E13.30681
G1 X149.054 Y153.25 E13.33951
G1 X149.311 Y152.971 E13.35213
G1 X149.585 Y152.684 E13.36533
G1 X151.095 Y151.165 E13.43656
G1 X151.547 Y150.723 E13.45759
G1 X152.233 Y150.109 E13.48821
G1 X152.969 Y149.556 E13.51883
G1 X153.953 Y148.958 E13.55713
G1 X154.22 Y148.815 E13.5672
G1 X155.05 Y148.416 E13.59783
G1 X155.911 Y148.09 E13.62845
G1 X156.797 Y147.841 E13.65906
G1 X157.791 Y147.656 E13.69269
G1 X158.084 Y147.616 E13.70253
G1 X159.001 Y147.532 E13.73315
G1 X159.982 Y147.529 E13.76578
G1 X161.01 Y147.574 E13.80001
G1 X161.714 Y147.614 E13.82346
G1 F1800 E9.72346
G0 F6000 X172.487 Y157.802
G0 X175.469 Y161.075
G0 X176.489 Y162.39
G0 X177.54 Y164.356
G0 X186.767 Y185.217
G0 X186.767 Y185.682
G1 F1800 E13.90661
G1 F1200 X195.654 Y185.682 E14.20219
G1 X195.623 Y188.003 E14.2794
G1 X189.241 Y188.089 E14.49168
G1 X188.948 Y187.999 E14.50188
G1 X188.404 Y187.914 E14.52019
G1 X187.976 Y187.904 E14.53443
G1 X186.787 Y187.942 E14.574
G1 X186.767 Y185.682 E14.64917
G0 F6000 X186.363 Y185.282
G1 F1200 X196.059 Y185.282 E14.97166
G1 X196.017 Y188.398 E15.0753
G1 X189.192 Y188.49 E15.30233
G1 X188.776 Y188.371 E15.31672
G1 X188.259 Y188.306 E15.33405
G1 X187.988 Y188.304 E15.34306
G1 X186.528 Y188.35 E15.39165
G1 X186.391 Y188.335 E15.39623
G1 X186.363 Y185.282 E15.49778
G0 F6000 X185.959 Y184.882
G1 F1200 X196.465 Y184.882 E15.84721
G1 X196.412 Y188.793 E15.9773
G1 X189.131 Y188.891 E16.21949
G1 X189.082 Y188.869 E16.22128
G1 X188.608 Y188.746 E16.23756
G1 X188.001 Y188.704 E16.2578
G1 X186.51 Y188.751 E16.30742
G1 X185.995 Y188.717 E16.32458
G1 X185.959 Y184.882 E16.45214
G0 F6000 X185.555 Y184.482
G1 F1200 X196.87 Y184.482 E16.82848
G1 X196.807 Y189.187 E16.98498
G1 X189.046 Y189.291 E17.24314
G1 X188.891 Y189.226 E17.24873
G1 X188.446 Y189.126 E17.2639
G1 X188.014 Y189.103 E17.27829
G1 X186.498 Y189.151 E17.32873
G1 X185.859 Y189.106 E17.35004
G1 X185.741 Y189.112 E17.35397
G1 X185.598 Y189.111 E17.35873
G1 X185.555 Y184.482 E17.51269
G0 F6000 X185.152 Y184.082
G1 F1200 X197.275 Y184.082 E17.91591
G1 X197.202 Y189.582 E18.09885
G1 X188.968 Y189.691 E18.37274
G1 X188.704 Y189.588 E18.38217
G1 X188.292 Y189.511 E18.39611
G1 X188.026 Y189.503 E18.40496
G1 X186.468 Y189.552 E18.4568
G1 X186.403 Y189.54 E18.459
G1 X185.88 Y189.505 E18.47643
G1 X185.742 Y189.512 E18.48103
G1 X185.22 Y189.511 E18.49839
G1 X185.202 Y189.512 E18.49899
G1 X185.152 Y184.082 E18.6796
G0 F6000 X184.748 Y183.682
G1 F1200 X197.681 Y183.682 E19.10976
G1 X197.596 Y189.977 E19.31915
G1 X188.895 Y190.092 E19.60857
G1 X188.523 Y189.953 E19.62178
G1 X188.039 Y189.903 E19.63796
G1 X186.439 Y189.954 E19.6912
G1 X186.329 Y189.933 E19.69493
G1 X185.901 Y189.904 E19.7092
G1 X185.743 Y189.912 E19.71446
G1 X184.805 Y189.909 E19.74566
G1 X184.748 Y183.682 E19.95278
G0 F6000 X184.344 Y183.282
G1 F1200 X198.086 Y183.282 E20.40984
G1 X197.993 Y190.256 E20.64181
G1 X197.824 Y190.374 E20.64867
G1 X189.121 Y190.491 E20.93816
G1 X188.781 Y190.492 E20.94947
G1 X188.67 Y190.425 E20.95378
G1 X188.351 Y190.325 E20.9649
G1 X188.052 Y190.303 E20.97487
G1 X186.409 Y190.355 E21.02954
G1 X186.255 Y190.326 E21.03476
G1 X185.922 Y190.304 E21.04586
G1 X185.759 Y190.313 E21.05129
G1 X184.409 Y190.31 E21.09619
G1 X184.344 Y183.282 E21.32995
G0 F6000 X183.94 Y182.882
G1 F1200 X198.492 Y182.882 E21.81395
G1 X198.391 Y190.376 E22.06322
G1 X198.304 Y190.527 E22.06902
G1 X197.952 Y190.772 E22.08328
G1 X188.673 Y190.892 E22.39193
G1 X188.466 Y190.773 E22.39987
G1 X188.064 Y190.703 E22.41344
G1 X186.378 Y190.756 E22.46955
G1 X186.18 Y190.719 E22.47625
G1 X185.943 Y190.703 E22.48415
G1 X185.76 Y190.713 E22.49024
G1 X184.013 Y190.711 E22.54835
G1 X183.94 Y182.882 E22.80875
G0 F6000 X183.537 Y182.482
G1 F1200 X198.897 Y182.482 E23.31963
G1 X198.79 Y190.485 E23.58584
G1 X198.605 Y190.804 E23.5981
G1 X198.08 Y191.17 E23.61939
G1 X188.546 Y191.292 E23.93651
G1 X188.465 Y191.229 E23.93993
G1 X188.271 Y191.128 E23.9472
G1 X188.077 Y191.102 E23.95371
G1 X186.344 Y191.157 E24.01138
G1 X186.106 Y191.112 E24.01944
G1 X185.964 Y191.103 E24.02417
G1 X185.776 Y191.113 E24.03043
G1 X185.346 Y191.108 E24.04473
G1 X185.235 Y191.113 E24.04843
G1 X183.781 Y191.108 E24.09679
G1 X183.617 Y191.113 E24.10225
G1 X183.537 Y182.482 E24.38933
G0 F6000 X183.133 Y182.082
G1 F1200 X199.258 Y182.082 E24.92565
G1 X199.298 Y182.143 E24.92807
G1 X199.3 Y182.273 E24.9324
G1 X199.188 Y190.595 E25.20921
G1 X198.91 Y191.078 E25.22775
G1 X198.208 Y191.569 E25.25624
G1 X188.409 Y191.692 E25.58218
G1 X188.219 Y191.544 E25.59019
G1 X188.09 Y191.502 E25.59471
G1 X186.314 Y191.558 E25.65381
G1 X186.032 Y191.505 E25.66335
G1 X185.777 Y191.513 E25.67184
G1 X185.341 Y191.508 E25.68634
G1 X185.238 Y191.513 E25.68977
G1 X184.791 Y191.509 E25.70464
G1 X184.731 Y191.514 E25.70664
G1 X184.268 Y191.508 E25.72204
G1 X184.201 Y191.513 E25.72427
G1 X183.776 Y191.508 E25.73841
G1 X183.67 Y191.513 E25.74194
G1 X183.22 Y191.51 E25.75691
G1 X183.133 Y182.082 E26.0705
G0 F6000 X171.526 Y167.482
G1 F1200 X171.322 Y166.783 E26.09472
G1 X171.513 Y166.209 E26.11484
G1 X171.927 Y165.239 E26.14991
G1 X172.278 Y164.161 E26.18762
G1 X172.339 Y163.798 E26.19986
G1 X172.381 Y162.345 E26.24821
G1 X172.376 Y162.294 E26.24992
G1 X172.293 Y161.945 E26.26185
G1 X172.171 Y161.548 E26.27566
G1 X173.623 Y162.952 E26.34284
G1 X173.233 Y164.447 E26.39423
G1 X172.784 Y165.515 E26.43276
G1 X172.149 Y166.546 E26.47303
G1 X171.526 Y167.482 E26.51043
G0 F6000 X172.088 Y165.88
G1 F1200 X172.314 Y165.345 E26.52975
G1 X172.657 Y164.287 E26.56674
G1 X172.68 Y164.194 E26.56993
G1 X172.742 Y163.782 E26.58378
G1 X172.772 Y162.684 E26.62032
G1 X173.178 Y163.077 E26.63911
G1 X172.854 Y164.317 E26.68174
G1 X172.427 Y165.329 E26.71827
G1 X172.088 Y165.88 E26.73979
G0 F6000 X169.203 Y169.538
G1 F1200 X168.996 Y169.641 E26.74748
G1 X167.771 Y170.225 E26.79261
