;FLAVOR:Marlin
;TIME:2158
;Filament used: 1.22219m
;Layer height: 0.2
;MINX:139.901
;MINY:147.53
;MINZ:0.2
;MAXX:210.07
;MAXY:202.492
;MAXZ:13
;Generated with Cura_SteamEngine 4.6.1
M140 S50
M105
M190 S50
M104 S210
M105
M109 S210
M82 ;absolute extrusion mode
M201 X500.00 Y500.00 Z100.00 E5000.00 ;Setup machine max acceleration
M203 X500.00 Y500.00 Z10.00 E50.00 ;Setup machine max feedrate
M204 P500.00 R1000.00 T500.00 ;Setup Print/Retract/Travel acceleration
M205 X8.00 Y8.00 Z0.40 E5.00 ;Setup Jerk
M220 S100 ;Reset Feedrate
M221 S100 ;Reset Flowrate

G28 ;Home
M420 S1 Z2 ;Enable ABL using saved Mesh and Fade Height

G92 E0 ;Reset Extruder
G1 Z2.0 F3000 ;Move Z Axis up
G1 X10.1 Y20 Z0.28 F5000.0 ;Move to start position
G1 X10.1 Y200.0 Z0.28 F1500.0 E15 ;Draw the first line
G1 X10.4 Y200.0 Z0.28 F5000.0 ;Move to side a little
G1 X10.4 Y20 Z0.28 F1500.0 E30 ;Draw the second line
G92 E0 ;Reset Extruder
G1 Z2.0 F3000 ;Move Z Axis up

G92 E0
G92 E0
G1 F1800 E-4.1
;LAYER_COUNT:65
;LAYER:0
M107
G0 F6000 X161.975 Y148.03 Z0.2
;TYPE:SKIRT
G1 F1800 E0.08315
G1 F1200 X164.51 Y148.101 E0.1675
G1 X167.044 Y148.101 E0.25178
G1 X169.636 Y148.027 E0.33802
G1 X171.154 Y147.948 E0.38858
G1 X172.057 Y147.941 E0.41862
G1 X172.957 Y148.014 E0.44865
G1 X173.847 Y148.166 E0.47868
G1 X174.62 Y148.366 E0.50524
G1 X174.743 Y148.403 E0.50951
G1 X175.596 Y148.702 E0.53957
G1 X176.418 Y149.074 E0.56958
G1 X177.374 Y149.625 E0.60628
G1 X177.618 Y149.784 E0.61597
G1 X178.352 Y150.31 E0.646
G1 X179.036 Y150.899 E0.67602
G1 X179.607 Y151.481 E0.70314
G1 X180.581 Y152.556 E0.75139
G1 X182.076 Y154.175 E0.82468
G1 X183.349 Y155.592 E0.88804
G1 X183.699 Y155.993 E0.90574
G1 X185.43 Y157.866 E0.99057
G1 X187.2 Y159.674 E1.07472
G1 X189.033 Y161.447 E1.15954
G1 X190.898 Y163.149 E1.24352
G1 X192.837 Y164.821 E1.32868
G1 X194.799 Y166.418 E1.41282
G1 X196.8 Y167.955 E1.49674
G1 X198.873 Y169.456 E1.58186
G1 X200.98 Y170.894 E1.66671
G1 X203.101 Y172.254 E1.75051
G1 X204.893 Y173.35 E1.82038
G1 X205.629 Y173.872 E1.85039
G1 X206.317 Y174.458 E1.88044
G1 X206.95 Y175.102 E1.91048
G1 X207.688 Y176.026 E1.94981
G1 X207.79 Y176.17 E1.95568
G1 X208.279 Y176.93 E1.98574
G1 X208.699 Y177.729 E2.01576
G1 X209.047 Y178.563 E2.04582
G1 X209.319 Y179.424 E2.07585
G1 X209.514 Y180.306 E2.10589
G1 X209.63 Y181.201 E2.13591
G1 X209.667 Y182.015 E2.16301
G1 X209.67 Y182.985 E2.19527
G1 X209.587 Y190.078 E2.4312
G1 X209.568 Y190.814 E2.45569
G1 X209.504 Y191.715 E2.48574
G1 X209.362 Y192.607 E2.51578
G1 X209.141 Y193.483 E2.54583
G1 X208.843 Y194.335 E2.57585
G1 X208.513 Y195.075 E2.6028
G1 X208.417 Y195.269 E2.60999
G1 X208.097 Y195.865 E2.63249
G1 X207.855 Y196.282 E2.64853
G1 X207.368 Y197.042 E2.67855
G1 X206.815 Y197.756 E2.70859
G1 X206.201 Y198.419 E2.73865
G1 X205.531 Y199.024 E2.76867
G1 X205.061 Y199.39 E2.78848
G1 X204.717 Y199.642 E2.80267
G1 X204.418 Y199.853 E2.81484
G1 X203.926 Y200.187 E2.83462
G1 X203.157 Y200.661 E2.86466
G1 X202.349 Y201.065 E2.89471
G1 X201.509 Y201.395 E2.92473
G1 X200.643 Y201.65 E2.95475
G1 X199.757 Y201.828 E2.98481
G1 X198.527 Y201.943 E3.0259
G1 X197.211 Y201.983 E3.06969
G1 X189.109 Y202.082 E3.33918
G1 X188.207 Y202.079 E3.36918
G1 X185.356 Y202.031 E3.46402
G1 X182.829 Y202.062 E3.54807
G1 X182.33 Y202.077 E3.56468
G1 X181.271 Y202.09 E3.5999
G1 X175.921 Y202.092 E3.77785
G1 X155.567 Y202.066 E4.45482
G1 X154.847 Y202.055 E4.47877
G1 X153.946 Y202.001 E4.50879
G1 X153.315 Y201.915 E4.52998
G1 X152.719 Y201.815 E4.55008
G1 X151.476 Y201.526 E4.59252
G1 X150.936 Y201.364 E4.61127
G1 X150.358 Y201.175 E4.6315
G1 X149.267 Y200.735 E4.67062
G1 X148.635 Y200.433 E4.69392
G1 X148.419 Y200.324 E4.70197
G1 X147.356 Y199.705 E4.74288
G1 X146.81 Y199.341 E4.76471
G1 X145.75 Y198.529 E4.80912
G1 X145.349 Y198.178 E4.82684
G1 X144.578 Y197.428 E4.86262
G1 X144.111 Y196.923 E4.8855
G1 X143.528 Y196.234 E4.91552
G1 X143.167 Y195.737 E4.93595
G1 X142.856 Y195.28 E4.95433
G1 X142.382 Y194.511 E4.98438
G1 X142.104 Y193.976 E5.00443
G1 X141.71 Y193.16 E5.03457
G1 X141.531 Y192.769 E5.04887
G1 X141.379 Y192.417 E5.06162
G1 X141.058 Y191.573 E5.09166
G1 X140.823 Y190.749 E5.12016
G1 X140.692 Y190.202 E5.13886
G1 X140.575 Y189.656 E5.15744
G1 X140.406 Y188.485 E5.19679
G1 X140.361 Y187.962 E5.21425
G1 X140.325 Y187.278 E5.23703
G1 X140.302 Y185.967 E5.28064
G1 X140.301 Y182.485 E5.39645
G1 X140.324 Y180.991 E5.44615
G1 X140.334 Y180.674 E5.4567
G1 X140.383 Y179.696 E5.48927
G1 X140.402 Y179.436 E5.49794
G1 X140.433 Y179.094 E5.50936
G1 X140.557 Y177.935 E5.54813
G1 X140.619 Y177.461 E5.56403
G1 X140.666 Y177.158 E5.57422
G1 X141.026 Y174.563 E5.66136
G1 X141.306 Y172.033 E5.74602
G1 X141.492 Y169.978 E5.81465
G1 X141.614 Y169.083 E5.84469
G1 X141.904 Y167.891 E5.8855
G1 X142.283 Y166.668 E5.92808
G1 X142.523 Y165.946 E5.95339
G1 X142.895 Y164.876 E5.99107
G1 X143.061 Y164.432 E6.00683
G1 X143.478 Y163.349 E6.04543
G1 X143.995 Y162.068 E6.09138
G1 X144.245 Y161.493 E6.11223
G1 X144.515 Y160.896 E6.13402
G1 X144.752 Y160.408 E6.15207
G1 X145.056 Y159.829 E6.17382
G1 X145.841 Y158.411 E6.22772
G1 X146.196 Y157.793 E6.25143
G1 X146.653 Y157.07 E6.27988
G1 X147.148 Y156.374 E6.30828
G1 X148.281 Y154.848 E6.3715
G1 X148.567 Y154.473 E6.38719
G1 X148.778 Y154.206 E6.3985
G1 X149.077 Y153.84 E6.41422
G1 X149.612 Y153.236 E6.44106
G1 X150.044 Y152.787 E6.46178
G1 X151.325 Y151.501 E6.52216
G1 X151.829 Y151.008 E6.5456
G1 X152.501 Y150.406 E6.57561
G1 X153.225 Y149.866 E6.60565
G1 X154.156 Y149.303 E6.64184
G1 X154.42 Y149.162 E6.65179
G1 X155.234 Y148.772 E6.68181
G1 X156.08 Y148.456 E6.71185
G1 X156.951 Y148.216 E6.7419
G1 X157.819 Y148.056 E6.77126
G1 X158.092 Y148.018 E6.78042
G1 X158.991 Y147.934 E6.81046
G1 X159.914 Y147.929 E6.84116
G1 X160.82 Y147.966 E6.87131
G1 X161.975 Y148.03 E6.90979
G0 F6000 X161.974 Y147.63
G1 F1200 X164.521 Y147.701 E6.99454
G1 X167.033 Y147.701 E7.07808
G1 X169.602 Y147.627 E7.16357
G1 X171.133 Y147.548 E7.21455
G1 X172.054 Y147.541 E7.24519
G1 X172.971 Y147.613 E7.27578
G1 X173.879 Y147.764 E7.3064
G1 X174.735 Y147.983 E7.33578
G1 X174.858 Y148.02 E7.34006
G1 X175.728 Y148.324 E7.37071
G1 X176.567 Y148.701 E7.4013
G1 X177.592 Y149.29 E7.44062
G1 X177.836 Y149.449 E7.45031
G1 X178.585 Y149.985 E7.48094
G1 X179.284 Y150.583 E7.51154
G1 X179.904 Y151.212 E7.54091
G1 X180.941 Y152.356 E7.59227
G1 X182.374 Y153.907 E7.6625
G1 X183.65 Y155.329 E7.72605
G1 X183.993 Y155.722 E7.7434
G1 X185.727 Y157.598 E7.82836
G1 X187.463 Y159.372 E7.91092
G1 X189.298 Y161.146 E7.99581
G1 X191.183 Y162.867 E8.0807
G1 X193.105 Y164.524 E8.16511
G1 X195.011 Y166.076 E8.24686
G1 X197.072 Y167.659 E8.33329
G1 X199.11 Y169.134 E8.41697
G1 X201.175 Y170.544 E8.50013
G1 X203.33 Y171.925 E8.58526
G1 X205.11 Y173.014 E8.65467
G1 X205.861 Y173.546 E8.68528
G1 X206.563 Y174.141 E8.71589
G1 X207.211 Y174.795 E8.74651
G1 X208.015 Y175.795 E8.78918
G1 X208.117 Y175.939 E8.79505
G1 X208.616 Y176.713 E8.82568
G1 X209.046 Y177.527 E8.8563
G1 X209.404 Y178.375 E8.88692
G1 X209.686 Y179.251 E8.91753
G1 X209.892 Y180.149 E8.94817
G1 X210.019 Y181.06 E8.97876
G1 X210.067 Y182.013 E9.0105
G1 X210.07 Y182.99 E9.04299
G1 X209.986 Y190.089 E9.27913
G1 X209.967 Y190.825 E9.30361
G1 X209.904 Y191.743 E9.33422
G1 X209.761 Y192.652 E9.36482
G1 X209.539 Y193.546 E9.39546
G1 X209.241 Y194.417 E9.42608
G1 X208.871 Y195.252 E9.45646
G1 X208.775 Y195.446 E9.46365
G1 X208.443 Y196.066 E9.48705
G1 X208.201 Y196.483 E9.50308
G1 X207.705 Y197.258 E9.53369
G1 X207.143 Y197.987 E9.5643
G1 X206.52 Y198.665 E9.59493
G1 X205.841 Y199.287 E9.62555
G1 X205.297 Y199.713 E9.64853
G1 X204.953 Y199.965 E9.66272
G1 X204.643 Y200.184 E9.67534
G1 X204.151 Y200.518 E9.69512
G1 X203.367 Y201.002 E9.72576
G1 X202.545 Y201.415 E9.75636
G1 X201.69 Y201.756 E9.78698
G1 X200.808 Y202.021 E9.81761
G1 X199.907 Y202.209 E9.84822
G1 X198.54 Y202.342 E9.8939
G1 X197.216 Y202.383 E9.93796
G1 X189.108 Y202.482 E10.20765
G1 X188.2 Y202.479 E10.23785
G1 X185.354 Y202.431 E10.33252
G1 X182.848 Y202.462 E10.41588
G1 X182.335 Y202.477 E10.43295
G1 X181.271 Y202.49 E10.46834
G1 X175.921 Y202.492 E10.64628
G1 X155.561 Y202.466 E11.32346
G1 X154.841 Y202.455 E11.34741
G1 X153.922 Y202.401 E11.37803
G1 X153.249 Y202.31 E11.40062
G1 X152.653 Y202.21 E11.42072
G1 X151.361 Y201.909 E11.46484
G1 X150.821 Y201.747 E11.48359
G1 X150.23 Y201.554 E11.50427
G1 X149.096 Y201.097 E11.54493
G1 X148.455 Y200.79 E11.56857
G1 X148.239 Y200.681 E11.57662
G1 X147.134 Y200.038 E11.61914
G1 X146.588 Y199.674 E11.64097
G1 X145.845 Y199.13 E11.6716
G1 X145.486 Y198.83 E11.68716
G1 X145.085 Y198.479 E11.70488
G1 X144.285 Y197.7 E11.74202
G1 X143.818 Y197.195 E11.7649
G1 X143.222 Y196.492 E11.79555
G1 X142.837 Y195.962 E11.81734
G1 X142.526 Y195.505 E11.83573
G1 X142.041 Y194.722 E11.86636
G1 X141.743 Y194.15 E11.88781
G1 X141.349 Y193.334 E11.91795
G1 X141.164 Y192.927 E11.93282
G1 X141.012 Y192.575 E11.94557
G1 X140.684 Y191.715 E11.97618
G1 X140.434 Y190.842 E12.00639
G1 X140.303 Y190.295 E12.0251
G1 X140.183 Y189.736 E12.04411
G1 X140.007 Y188.52 E12.08498
G1 X139.962 Y187.997 E12.10244
G1 X139.925 Y187.285 E12.12615
G1 X139.902 Y185.967 E12.16999
G1 X139.901 Y182.479 E12.28601
G1 X139.934 Y180.655 E12.34668
G1 X139.984 Y179.666 E12.37962
G1 X140.003 Y179.406 E12.38829
G1 X140.035 Y179.051 E12.40014
G1 X140.159 Y177.892 E12.43891
G1 X140.224 Y177.4 E12.45542
G1 X140.269 Y177.107 E12.46528
G1 X140.626 Y174.535 E12.55164
G1 X140.912 Y171.953 E12.63805
G1 X141.094 Y169.942 E12.70521
G1 X141.217 Y169.029 E12.73585
G1 X141.522 Y167.773 E12.77883
G1 X141.903 Y166.543 E12.82166
G1 X142.145 Y165.815 E12.84718
G1 X142.52 Y164.737 E12.88514
G1 X142.687 Y164.288 E12.90107
G1 X143.106 Y163.2 E12.93985
G1 X143.514 Y162.181 E12.97636
G1 X143.881 Y161.328 E13.00724
G1 X144.151 Y160.731 E13.02904
G1 X144.397 Y160.224 E13.04778
G1 X144.706 Y159.635 E13.0699
G1 X145.495 Y158.212 E13.12402
G1 X145.85 Y157.594 E13.14773
G1 X146.324 Y156.843 E13.17726
G1 X146.827 Y156.136 E13.20612
G1 X147.963 Y154.606 E13.2695
G1 X148.249 Y154.231 E13.28519
G1 X148.468 Y153.953 E13.29696
G1 X148.767 Y153.587 E13.31268
G1 X149.323 Y152.959 E13.34058
G1 X149.761 Y152.505 E13.36156
G1 X151.045 Y151.215 E13.42209
G1 X151.549 Y150.722 E13.44554
G1 X152.234 Y150.108 E13.47614
G1 X152.971 Y149.555 E13.50679
G1 X153.967 Y148.95 E13.54555
G1 X154.231 Y148.809 E13.5555
G1 X155.061 Y148.411 E13.58612
G1 X155.923 Y148.086 E13.61676
G1 X156.809 Y147.838 E13.64736
G1 X157.764 Y147.66 E13.67967
G1 X158.037 Y147.622 E13.68884
G1 X158.953 Y147.535 E13.71944
G1 X159.931 Y147.53 E13.75197
G1 X160.837 Y147.567 E13.78213
G1 X161.974 Y147.63 E13.82
G1 F1800 E9.72
G0 F6000 X172.486 Y157.802
G0 X175.469 Y161.074
G0 X176.489 Y162.389
G0 X177.657 Y164.575
G0 X186.364 Y185.217
G0 X186.364 Y185.282
G1 F1800 E13.90315
G1 F1200 X196.05 Y185.282 E14.22531
G1 X196.009 Y188.397 E14.32892
G1 X189.194 Y188.481 E14.55561
G1 X189.137 Y188.458 E14.55765
G1 X188.63 Y188.34 E14.57497
G1 X188.018 Y188.304 E14.59536
G1 X186.392 Y188.353 E14.64946
G1 X186.364 Y185.282 E14.75161
G0 F6000 X186.767 Y185.682
G1 F1200 X195.644 Y185.682 E15.04686
G1 X195.614 Y188.002 E15.12403
G1 X189.257 Y188.08 E15.33548
G1 X188.783 Y187.96 E15.35174
G1 X188.006 Y187.904 E15.37765
G1 X186.788 Y187.94 E15.41818
G1 X186.767 Y185.682 E15.49328
G0 F6000 X185.96 Y184.882
G1 F1200 X196.455 Y184.882 E15.84235
G1 X196.404 Y188.792 E15.97241
G1 X189.117 Y188.882 E16.21479
G1 X188.961 Y188.822 E16.22035
G1 X188.481 Y188.724 E16.23665
G1 X188.03 Y188.703 E16.25166
G1 X186.316 Y188.754 E16.3087
G1 X186.267 Y188.744 E16.31036
G1 X185.995 Y188.71 E16.31948
G1 X185.96 Y184.882 E16.4468
G0 F6000 X185.556 Y184.482
G1 F1200 X196.86 Y184.482 E16.82277
G1 X196.799 Y189.187 E16.97928
G1 X189.046 Y189.283 E17.23716
G1 X188.788 Y189.189 E17.2463
G1 X188.339 Y189.111 E17.26145
G1 X188.042 Y189.103 E17.27133
G1 X186.28 Y189.156 E17.32997
G1 X186.185 Y189.136 E17.33319
G1 X185.733 Y189.082 E17.34833
G1 X185.599 Y189.09 E17.3528
G1 X185.556 Y184.482 E17.50607
G0 F6000 X185.152 Y184.082
G1 F1200 X197.266 Y184.082 E17.90898
G1 X197.193 Y189.583 E18.09196
G1 X188.988 Y189.683 E18.36488
G1 X188.62 Y189.56 E18.37779
G1 X188.054 Y189.503 E18.39671
G1 X186.243 Y189.557 E18.45697
G1 X186.103 Y189.528 E18.46172
G1 X185.687 Y189.481 E18.47565
G1 X185.203 Y189.509 E18.49177
G1 X185.152 Y184.082 E18.67228
G0 F6000 X184.749 Y183.682
G1 F1200 X197.671 Y183.682 E19.10207
G1 X197.588 Y189.978 E19.3115
G1 X188.894 Y190.085 E19.60068
G1 X188.821 Y190.044 E19.60347
G1 X188.458 Y189.934 E19.61608
G1 X188.066 Y189.903 E19.62916
G1 X186.21 Y189.959 E19.69092
G1 X186.021 Y189.919 E19.69734
G1 X185.644 Y189.881 E19.70995
G1 X185.401 Y189.899 E19.71805
G1 X185.324 Y189.91 E19.72064
G1 X184.806 Y189.911 E19.73787
G1 X184.749 Y183.682 E19.94505
G0 F6000 X184.345 Y183.282
G1 F1200 X198.076 Y183.282 E20.40175
G1 X197.986 Y190.194 E20.63166
G1 X197.735 Y190.376 E20.64197
G1 X188.793 Y190.486 E20.93941
G1 X188.628 Y190.398 E20.94563
G1 X188.305 Y190.314 E20.95673
G1 X188.078 Y190.303 E20.96429
G1 X186.174 Y190.36 E21.02764
G1 X185.94 Y190.311 E21.03559
G1 X185.457 Y190.295 E21.05167
G1 X185.35 Y190.31 E21.05526
G1 X184.963 Y190.313 E21.06813
G1 X184.552 Y190.308 E21.0818
G1 X184.439 Y190.312 E21.08557
G1 X184.41 Y190.312 E21.08653
G1 X184.345 Y183.282 E21.32036
G0 F6000 X183.941 Y182.882
G1 F1200 X198.481 Y182.882 E21.80396
G1 X198.384 Y190.303 E22.05081
G1 X198.281 Y190.482 E22.05767
G1 X197.863 Y190.775 E22.07465
G1 X188.699 Y190.887 E22.37947
G1 X188.442 Y190.755 E22.38908
G1 X188.09 Y190.702 E22.40092
G1 X186.138 Y190.76 E22.46587
G1 X185.858 Y190.702 E22.47538
G1 X185.513 Y190.691 E22.48686
G1 X185.376 Y190.71 E22.49146
G1 X184.98 Y190.714 E22.50464
G1 X184.047 Y190.707 E22.53567
G1 X184.014 Y190.708 E22.53677
G1 X183.941 Y182.882 E22.79707
G0 F6000 X183.538 Y182.482
G1 F1200 X198.887 Y182.482 E23.30758
G1 X198.783 Y190.414 E23.57142
G1 X198.586 Y190.756 E23.58455
G1 X197.989 Y191.173 E23.60877
G1 X188.576 Y191.289 E23.92187
G1 X188.464 Y191.21 E23.92643
G1 X188.266 Y191.12 E23.93366
G1 X188.102 Y191.102 E23.93915
G1 X186.101 Y191.162 E24.00574
G1 X185.776 Y191.094 E24.01678
G1 X185.569 Y191.087 E24.02367
G1 X185.402 Y191.111 E24.02928
G1 X185.106 Y191.108 E24.03912
G1 X184.983 Y191.114 E24.04322
G1 X184.041 Y191.107 E24.07455
G1 X183.923 Y191.113 E24.07848
G1 X183.617 Y191.11 E24.08866
G1 X183.538 Y182.482 E24.37564
G0 F6000 X183.356 Y182.082
G1 F1200 X199.257 Y182.082 E24.90451
G1 X199.291 Y182.133 E24.90655
G1 X199.181 Y190.524 E25.18566
G1 X198.887 Y191.034 E25.20524
G1 X198.118 Y191.572 E25.23645
G1 X188.452 Y191.69 E25.55797
G1 X188.235 Y191.538 E25.56678
G1 X188.114 Y191.502 E25.57098
G1 X186.068 Y191.563 E25.63906
G1 X185.694 Y191.485 E25.65177
G1 X185.625 Y191.483 E25.65406
G1 X185.428 Y191.511 E25.66068
G1 X185.103 Y191.508 E25.67149
G1 X184.987 Y191.514 E25.67536
G1 X184.537 Y191.508 E25.69032
G1 X184.469 Y191.513 E25.69259
G1 X184.036 Y191.507 E25.70699
G1 X183.934 Y191.513 E25.71039
G1 X183.478 Y191.509 E25.72556
G1 X183.221 Y191.529 E25.73413
G1 X183.134 Y182.081 E26.04839
G1 X183.356 Y182.082 E26.05577
G0 F6000 X169.289 Y169.992
G1 F1200 X168.609 Y170.234 E26.07978
G1 X167.869 Y170.48 E26.10572
G1 X167.19 Y170.561 E26.12846
G1 X165.763 Y170.743 E26.17631
G1 X163.479 Y170.46 E26.25285
G1 X162.615 Y170.184 E26.28302
G1 X161.68 Y169.897 E26.31555
G1 X161.892 Y169.151 E26.34135
G1 X162.684 Y169.654 E26.37255
G1 X163.686 Y169.996 E26.40777
G1 X163.737 Y170.007 E26.4095
G1 X165.537 Y170.152 E26.46956
G1 X166.65 Y170.13 E26.50659
G1 X167.371 Y169.971 E26.53115
G1 X168.322 Y169.72 E26.56386
G1 X168.682 Y169.568 E26.57686
G1 X168.726 Y169.542 E26.57856
G1 X169.092 Y169.256 E26.59401
G1 X169.289 Y169.992 E26.61935
G0 F6000 X171.523 Y167.475
G1 F1200 X171.322 Y166.783 E26.64331
G1 X171.51 Y166.214 E26.66324
G1 X171.927 Y165.239 E26.69851
G1 X172.281 Y164.159 E26.73632
G1 X172.341 Y163.794 E26.74862
G1 X172.38 Y162.347 E26.79676
G1 X172.375 Y162.297 E26.79844
G1 X172.294 Y161.945 E26.81045
G1 X172.17 Y161.54 E26.82454
G1 X173.43 Y162.727 E26.88211
