;FLAVOR:Marlin
;TIME:5103
;Filament used: 2.92574m
;Layer height: 0.2
;MINX:137.116
;MINY:137.4
;MINZ:0.2
;MAXX:210.984
;MAXY:212.6
;MAXZ:13
;Generated with Cura_SteamEngine 4.6.1
M140 S50
M105
M190 S50
M104 S210
M105
M109 S210
M82 ;absolute extrusion mode
M201 X500.00 Y500.00 Z100.00 E5000.00 ;Setup machine max acceleration
M203 X500.00 Y500.00 Z10.00 E50.00 ;Setup machine max feedrate
M204 P500.00 R1000.00 T500.00 ;Setup Print/Retract/Travel acceleration
M205 X8.00 Y8.00 Z0.40 E5.00 ;Setup Jerk
M220 S100 ;Reset Feedrate
M221 S100 ;Reset Flowrate

G28 ;Home
M420 S1 Z2 ;Enable ABL using saved Mesh and Fade Height

G92 E0 ;Reset Extruder
G1 Z2.0 F3000 ;Move Z Axis up
G1 X10.1 Y20 Z0.28 F5000.0 ;Move to start position
G1 X10.1 Y200.0 Z0.28 F1500.0 E15 ;Draw the first line
G1 X10.4 Y200.0 Z0.28 F5000.0 ;Move to side a little
G1 X10.4 Y20 Z0.28 F1500.0 E30 ;Draw the second line
G92 E0 ;Reset Extruder
G1 Z2.0 F3000 ;Move Z Axis up

G92 E0
G92 E0
G1 F1500 E-4.1
;LAYER_COUNT:65
;LAYER:0
M107
G0 F6000 X200.121 Y138.21 Z0.2
;TYPE:SKIRT
G1 F1500 E0
G1 F1200 X201.023 Y138.263 E0.03005
G1 X201.916 Y138.395 E0.06008
G1 X202.794 Y138.606 E0.09011
G1 X203.65 Y138.894 E0.12015
G1 X204.477 Y139.256 E0.15018
G1 X205.269 Y139.691 E0.18023
G1 X206.02 Y140.193 E0.21027
G1 X206.723 Y140.76 E0.24031
G1 X207.373 Y141.387 E0.27035
G1 X207.965 Y142.069 E0.30039
G1 X208.495 Y142.8 E0.33042
G1 X208.957 Y143.576 E0.36046
G1 X209.35 Y144.389 E0.39049
G1 X209.668 Y145.234 E0.42052
G1 X209.911 Y146.104 E0.45056
G1 X210.076 Y146.992 E0.4806
G1 X210.174 Y148.238 E0.52217
G1 X210.184 Y148.946 E0.54573
G1 X210.183 Y200.99 E2.27672
G1 X210.174 Y201.717 E2.3009
G1 X210.123 Y202.619 E2.33095
G1 X209.992 Y203.513 E2.361
G1 X209.783 Y204.391 E2.39102
G1 X209.497 Y205.248 E2.42107
G1 X209.136 Y206.076 E2.45111
G1 X208.704 Y206.868 E2.48111
G1 X208.203 Y207.62 E2.51117
G1 X207.637 Y208.324 E2.54121
G1 X207.012 Y208.975 E2.57123
G1 X206.331 Y209.569 E2.60128
G1 X205.6 Y210.1 E2.63134
G1 X204.826 Y210.564 E2.66135
G1 X204.013 Y210.958 E2.6914
G1 X203.169 Y211.278 E2.72142
G1 X202.299 Y211.523 E2.75148
G1 X201.412 Y211.689 E2.7815
G1 X200.261 Y211.787 E2.81992
G1 X199.654 Y211.8 E2.84011
G1 X159.345 Y211.799 E4.18079
G1 X158.647 Y211.789 E4.20401
G1 X157.745 Y211.736 E4.23406
G1 X156.852 Y211.604 E4.26409
G1 X155.974 Y211.393 E4.29412
G1 X155.118 Y211.105 E4.32416
G1 X154.291 Y210.743 E4.35419
G1 X153.499 Y210.308 E4.38424
G1 X152.748 Y209.806 E4.41428
G1 X152.045 Y209.239 E4.44432
G1 X151.395 Y208.612 E4.47436
G1 X150.803 Y207.93 E4.5044
G1 X150.273 Y207.199 E4.53443
G1 X149.811 Y206.423 E4.56447
G1 X149.392 Y205.548 E4.59674
G1 X149.019 Y204.661 E4.62874
G1 X147.977 Y202.268 E4.71555
G1 X146.908 Y199.993 E4.79915
G1 X145.748 Y197.694 E4.8848
G1 X144.539 Y195.457 E4.96937
G1 X143.263 Y193.249 E5.05419
G1 X142.435 Y191.888 E5.10718
G1 X142.023 Y191.224 E5.13317
G1 X141.621 Y190.514 E5.16031
G1 X141.265 Y189.82 E5.18625
G1 X140.766 Y188.805 E5.22387
G1 X140.462 Y188.165 E5.24743
G1 X140.125 Y187.372 E5.27609
G1 X139.783 Y186.455 E5.30864
G1 X139.487 Y185.619 E5.33814
G1 X139.26 Y184.95 E5.36164
G1 X139.018 Y184.124 E5.39027
G1 X138.806 Y183.265 E5.41969
G1 X138.569 Y182.246 E5.45449
G1 X138.414 Y181.537 E5.47863
G1 X138.261 Y180.653 E5.50847
G1 X138.149 Y179.763 E5.5383
G1 X138.049 Y178.875 E5.56802
G1 X137.977 Y178.158 E5.59199
G1 X137.927 Y177.279 E5.62127
G1 X137.916 Y176.413 E5.65008
G1 X137.917 Y175.471 E5.68141
G1 X137.927 Y174.773 E5.70463
G1 X137.971 Y173.962 E5.73164
G1 X138.051 Y173.133 E5.75934
G1 X138.173 Y172.039 E5.79596
G1 X138.253 Y171.401 E5.81734
G1 X138.401 Y170.53 E5.84673
G1 X138.596 Y169.626 E5.87749
G1 X138.807 Y168.712 E5.90868
G1 X139.022 Y167.858 E5.93798
G1 X139.119 Y167.507 E5.95009
G1 X139.302 Y166.915 E5.9707
G1 X139.51 Y166.311 E5.99194
G1 X139.848 Y165.366 E6.02532
G1 X140.095 Y164.699 E6.04898
G1 X140.445 Y163.868 E6.07897
G1 X140.827 Y163.065 E6.10855
G1 X141.258 Y162.188 E6.14105
G1 X141.587 Y161.542 E6.16516
G1 X141.787 Y161.169 E6.17924
G1 X143.069 Y158.89 E6.26621
G1 X144.24 Y156.667 E6.34978
G1 X145.377 Y154.35 E6.43562
G1 X146.42 Y152.063 E6.51922
G1 X147.413 Y149.714 E6.60404
G1 X148.348 Y147.319 E6.68956
G1 X149.006 Y145.463 E6.75505
G1 X149.218 Y144.888 E6.77543
G1 X149.567 Y144.056 E6.80544
G1 X149.989 Y143.257 E6.8355
G1 X150.48 Y142.499 E6.86554
G1 X151.036 Y141.788 E6.89556
G1 X151.653 Y141.128 E6.92561
G1 X152.326 Y140.525 E6.95566
G1 X153.049 Y139.985 E6.98567
G1 X153.817 Y139.51 E7.01571
G1 X154.625 Y139.105 E7.04577
G1 X155.465 Y138.774 E7.0758
G1 X156.331 Y138.517 E7.10584
G1 X157.216 Y138.339 E7.13587
G1 X158.277 Y138.23 E7.17134
G1 X158.616 Y138.213 E7.18263
G1 X159.127 Y138.2 E7.19963
G1 X199.423 Y138.2 E8.53988
G1 X200.121 Y138.21 E8.5631
G0 F6000 X200.127 Y137.81
G1 F1200 X201.046 Y137.863 E8.59372
G1 X201.957 Y137.996 E8.62434
G1 X202.853 Y138.207 E8.65496
G1 X203.727 Y138.495 E8.68556
G1 X204.574 Y138.858 E8.71621
G1 X205.385 Y139.293 E8.74682
G1 X206.155 Y139.797 E8.77743
G1 X206.879 Y140.366 E8.80806
G1 X207.551 Y140.996 E8.8387
G1 X208.166 Y141.681 E8.86931
G1 X208.719 Y142.417 E8.89993
G1 X209.206 Y143.198 E8.93055
G1 X209.623 Y144.019 E8.96117
G1 X209.968 Y144.873 E8.99181
G1 X210.237 Y145.753 E9.02241
G1 X210.429 Y146.654 E9.05305
G1 X210.542 Y147.567 E9.08365
G1 X210.574 Y148.231 E9.10576
G1 X210.584 Y148.946 E9.12954
G1 X210.583 Y200.995 E10.8607
G1 X210.574 Y201.722 E10.88488
G1 X210.523 Y202.641 E10.9155
G1 X210.392 Y203.553 E10.94614
G1 X210.182 Y204.449 E10.97675
G1 X209.896 Y205.324 E11.00737
G1 X209.535 Y206.171 E11.03799
G1 X209.101 Y206.983 E11.06861
G1 X208.599 Y207.755 E11.09924
G1 X208.031 Y208.48 E11.12987
G1 X207.403 Y209.153 E11.16049
G1 X206.719 Y209.769 E11.19111
G1 X205.984 Y210.323 E11.22172
G1 X205.204 Y210.812 E11.25234
G1 X204.384 Y211.231 E11.28297
G1 X203.531 Y211.577 E11.31358
G1 X202.651 Y211.848 E11.34421
G1 X201.751 Y212.041 E11.37482
G1 X200.837 Y212.156 E11.40546
G1 X200.272 Y212.187 E11.42428
G1 X199.654 Y212.2 E11.44484
G1 X159.339 Y212.199 E12.78572
G1 X158.641 Y212.189 E12.80894
G1 X157.722 Y212.136 E12.83956
G1 X156.811 Y212.003 E12.87018
G1 X155.915 Y211.792 E12.9008
G1 X155.041 Y211.504 E12.9314
G1 X154.194 Y211.141 E12.96205
G1 X153.383 Y210.706 E12.99266
G1 X152.613 Y210.202 E13.02327
G1 X151.889 Y209.633 E13.0539
G1 X151.217 Y209.003 E13.08453
G1 X150.602 Y208.318 E13.11515
G1 X150.049 Y207.582 E13.14577
G1 X149.562 Y206.801 E13.17638
G1 X149.024 Y205.703 E13.21705
G1 X148.682 Y204.891 E13.24636
G1 X147.606 Y202.42 E13.336
G1 X146.546 Y200.164 E13.4189
G1 X145.397 Y197.885 E13.50379
G1 X144.192 Y195.656 E13.58807
G1 X142.922 Y193.458 E13.6725
G1 X142.047 Y192.021 E13.72846
G1 X141.683 Y191.435 E13.7514
G1 X141.265 Y190.697 E13.77961
G1 X140.906 Y189.997 E13.80578
G1 X140.404 Y188.977 E13.84359
G1 X140.1 Y188.337 E13.86715
G1 X139.75 Y187.512 E13.89696
G1 X139.406 Y186.589 E13.92972
G1 X139.108 Y185.748 E13.9594
G1 X138.881 Y185.079 E13.98289
G1 X138.63 Y184.221 E14.01263
G1 X138.417 Y183.356 E14.04226
G1 X138.179 Y182.332 E14.07722
G1 X138.024 Y181.623 E14.10136
G1 X137.865 Y180.703 E14.13242
G1 X137.751 Y179.808 E14.16242
G1 X137.651 Y178.915 E14.19231
G1 X137.579 Y178.198 E14.21628
G1 X137.527 Y177.285 E14.24669
G1 X137.516 Y176.413 E14.2757
G1 X137.517 Y175.465 E14.30723
G1 X137.527 Y174.767 E14.33045
G1 X137.573 Y173.925 E14.35849
G1 X137.653 Y173.089 E14.38643
G1 X137.776 Y171.989 E14.42324
G1 X137.856 Y171.351 E14.44463
G1 X138.01 Y170.446 E14.47516
G1 X138.206 Y169.537 E14.50609
G1 X138.418 Y168.616 E14.53752
G1 X138.636 Y167.751 E14.56719
G1 X138.733 Y167.4 E14.5793
G1 X138.923 Y166.785 E14.60071
G1 X139.133 Y166.176 E14.62214
G1 X139.473 Y165.227 E14.65567
G1 X139.72 Y164.56 E14.67932
G1 X140.084 Y163.696 E14.71051
G1 X140.468 Y162.889 E14.74023
G1 X140.901 Y162.006 E14.77294
G1 X141.23 Y161.36 E14.79705
G1 X141.438 Y160.973 E14.81167
G1 X142.716 Y158.702 E14.89834
G1 X143.892 Y156.469 E14.98228
G1 X145.012 Y154.187 E15.06683
G1 X146.059 Y151.89 E15.15079
G1 X147.036 Y149.58 E15.23421
G1 X147.974 Y147.177 E15.32
G1 X148.63 Y145.325 E15.38535
G1 X148.842 Y144.75 E15.40574
G1 X149.198 Y143.901 E15.43636
G1 X149.626 Y143.086 E15.46697
G1 X150.123 Y142.311 E15.49759
G1 X150.686 Y141.582 E15.52823
G1 X151.309 Y140.905 E15.55883
G1 X151.99 Y140.284 E15.58948
G1 X152.721 Y139.725 E15.62009
G1 X153.498 Y139.231 E15.65072
G1 X154.315 Y138.807 E15.68133
G1 X155.166 Y138.455 E15.71196
G1 X156.044 Y138.178 E15.74258
G1 X156.943 Y137.979 E15.77321
G1 X158.257 Y137.83 E15.81719
G1 X158.596 Y137.813 E15.82848
G1 X159.127 Y137.8 E15.84615
G1 X199.429 Y137.8 E17.1866
G1 X200.127 Y137.81 E17.20981
G0 F6000 X200.133 Y137.41
G1 F1200 X201.069 Y137.464 E17.241
G1 X201.997 Y137.596 E17.27217
G1 X202.911 Y137.808 E17.30338
G1 X203.803 Y138.097 E17.33457
G1 X204.668 Y138.46 E17.36577
G1 X205.498 Y138.896 E17.39695
G1 X206.289 Y139.401 E17.42816
G1 X207.033 Y139.972 E17.45936
G1 X207.726 Y140.604 E17.49055
G1 X208.363 Y141.292 E17.52174
G1 X208.938 Y142.033 E17.55293
G1 X209.449 Y142.819 E17.58411
G1 X209.891 Y143.647 E17.61533
G1 X210.26 Y144.509 E17.64652
G1 X210.555 Y145.399 E17.6777
G1 X210.773 Y146.311 E17.70889
G1 X210.913 Y147.239 E17.74011
G1 X210.973 Y148.225 E17.77296
G1 X210.984 Y148.946 E17.79694
G1 X210.983 Y201 E19.52827
G1 X210.974 Y201.727 E19.55245
G1 X210.923 Y202.664 E19.58366
G1 X210.791 Y203.592 E19.61484
G1 X210.582 Y204.506 E19.64602
G1 X210.295 Y205.399 E19.67722
G1 X209.933 Y206.265 E19.70844
G1 X209.499 Y207.096 E19.73962
G1 X208.995 Y207.887 E19.77081
G1 X208.426 Y208.632 E19.80199
G1 X207.795 Y209.327 E19.83321
G1 X207.108 Y209.965 E19.8644
G1 X206.369 Y210.542 E19.89558
G1 X205.583 Y211.054 E19.92678
G1 X204.757 Y211.497 E19.95796
G1 X203.895 Y211.869 E19.98918
G1 X203.006 Y212.165 E20.02035
G1 X202.094 Y212.385 E20.05155
G1 X201.167 Y212.526 E20.08274
G1 X200.283 Y212.587 E20.11221
G1 X199.654 Y212.6 E20.13313
G1 X159.333 Y212.599 E21.47422
G1 X158.635 Y212.589 E21.49743
G1 X157.699 Y212.535 E21.52862
G1 X156.771 Y212.403 E21.55979
G1 X155.857 Y212.191 E21.591
G1 X154.965 Y211.902 E21.62219
G1 X154.1 Y211.539 E21.65339
G1 X153.27 Y211.103 E21.68457
G1 X152.479 Y210.598 E21.71578
G1 X151.735 Y210.027 E21.74698
G1 X151.042 Y209.395 E21.77817
G1 X150.405 Y208.707 E21.80936
G1 X149.83 Y207.966 E21.84055
G1 X149.319 Y207.18 E21.87173
G1 X148.877 Y206.352 E21.90295
G1 X148.655 Y205.859 E21.92093
G1 X148.263 Y204.928 E21.95453
G1 X147.255 Y202.613 E22.03851
G1 X146.185 Y200.335 E22.12222
G1 X145.031 Y198.048 E22.20742
G1 X143.867 Y195.894 E22.28885
G1 X142.572 Y193.654 E22.37491
G1 X141.705 Y192.229 E22.43039
G1 X141.343 Y191.646 E22.45322
G1 X140.91 Y190.88 E22.48248
G1 X140.548 Y190.174 E22.50887
G1 X140.043 Y189.149 E22.54687
G1 X139.739 Y188.509 E22.57044
G1 X139.376 Y187.653 E22.60137
G1 X139.029 Y186.723 E22.63438
G1 X138.729 Y185.877 E22.66424
G1 X138.502 Y185.208 E22.68773
G1 X138.241 Y184.317 E22.71861
G1 X138.027 Y183.447 E22.74841
G1 X137.788 Y182.417 E22.78358
G1 X137.633 Y181.708 E22.80772
G1 X137.468 Y180.754 E22.83992
G1 X137.354 Y179.853 E22.87013
G1 X137.253 Y178.955 E22.90018
G1 X137.181 Y178.238 E22.92415
G1 X137.127 Y177.291 E22.9557
G1 X137.116 Y176.413 E22.9849
G1 X137.117 Y175.459 E23.01663
G1 X137.127 Y174.761 E23.03985
G1 X137.175 Y173.887 E23.06896
G1 X137.255 Y173.045 E23.09709
G1 X137.379 Y171.939 E23.13411
G1 X137.459 Y171.301 E23.1555
G1 X137.619 Y170.362 E23.18718
G1 X137.816 Y169.448 E23.21828
G1 X138.03 Y168.52 E23.24995
G1 X138.25 Y167.645 E23.27996
G1 X138.347 Y167.294 E23.29207
G1 X138.545 Y166.655 E23.31432
G1 X138.756 Y166.042 E23.33588
G1 X139.098 Y165.088 E23.36959
G1 X139.345 Y164.421 E23.39325
G1 X139.722 Y163.525 E23.42558
G1 X140.108 Y162.713 E23.45548
G1 X140.545 Y161.825 E23.4884
G1 X140.874 Y161.179 E23.51251
G1 X141.09 Y160.776 E23.52772
G1 X142.365 Y158.51 E23.6142
G1 X143.536 Y156.286 E23.6978
G1 X144.646 Y154.024 E23.7816
G1 X145.685 Y151.747 E23.86485
G1 X146.679 Y149.396 E23.94974
G1 X147.598 Y147.042 E24.03379
G1 X148.255 Y145.187 E24.09925
G1 X148.467 Y144.612 E24.11963
G1 X148.829 Y143.746 E24.15085
G1 X149.263 Y142.915 E24.18203
G1 X149.766 Y142.124 E24.21321
G1 X150.335 Y141.378 E24.24441
G1 X150.965 Y140.684 E24.27559
G1 X151.653 Y140.045 E24.30682
G1 X152.392 Y139.468 E24.338
G1 X153.177 Y138.956 E24.36917
G1 X154.004 Y138.512 E24.40039
G1 X154.865 Y138.14 E24.43159
G1 X155.754 Y137.844 E24.46275
G1 X156.666 Y137.624 E24.49396
G1 X157.593 Y137.482 E24.52515
G1 X158.237 Y137.431 E24.54663
G1 X158.576 Y137.414 E24.55792
G1 X159.127 Y137.4 E24.57626
G1 X199.435 Y137.4 E25.91691
G1 X200.133 Y137.41 E25.94012
G1 F1500 E21.84012
;MESH:FanShroud5.stl
G0 F6000 X176.07 Y167.168
G0 X176.618 Y165.526
G0 X176.008 Y165.938
G0 X175.378 Y166.521
;TYPE:WALL-OUTER
G1 F1500 E25.94012
G1 F1200 X175.403 Y166.634 E25.94397
G1 X174.411 Y168.221 E26.00622
G1 X174.373 Y168.189 E26.00787
G1 X174.421 Y168.124 E26.01056
G1 X175.378 Y166.521 E26.07265
G0 F6000 X175.976 Y165.97
G0 X176.379 Y165.627
;TYPE:WALL-INNER
G1 F1200 X176.382 Y165.618 E26.07297
G1 X175.609 Y165.19 E26.10236
G1 X172.701 Y163.602 E26.21256
G1 X172.692 Y163.597 E26.2129
G1 X172.64 Y163.698 E26.21504
G1 X172.523 Y163.926 E26.22188
G1 X172.46 Y163.651 E26.22482
G1 X172.448 Y163.6
G1 X170.307 Y162.868 E26.30008
G1 X169.745 Y162.726 E26.31936
G1 X167.632 Y162.721 E26.38964
G1 X166.884 Y162.759 E26.41455
G1 X166.848 Y162.856 E26.41799
G1 X166.83 Y162.771 E26.41803
G1 X166.787 Y162.569 E26.42459
G1 X166.723 Y162.6
G1 X165.831 Y163.039 E26.45765
G1 X163.171 Y164.138 E26.55338
G1 X162.703 Y164.346 E26.57041
G1 X162.523 Y164.228 E26.57757
G1 X162.188 Y164.037 E26.5904
G1 X161.743 Y164.29 E26.60742
G1 X159.884 Y165.368 E26.6789
G1 X159.308 Y165.936 E26.7058
G1 X158.571 Y166.685 E26.74075
G1 X157.81 Y167.428 E26.77613
G1 X157.87 Y167.572 E26.78132
G1 X157.935 Y167.726 E26.78688
G1 X157.789 Y167.645 E26.78979
G1 X157.788 Y167.644 E26.78984
G1 X157.713 Y167.603 E26.79173
G1 X157.481 Y167.474 E26.80056
G1 X157.46 Y167.557 E26.80303
G1 X157.188 Y168.59 E26.83855
G1 X155.613 Y171.279 E26.9422
G1 X155.896 Y171.435 E26.95295
G1 X155.654 Y171.482 E26.95454
G1 X155.495 Y171.514 E26.95716
G1 X155.201 Y172.614 E26.99503
G1 X155.086 Y173.094 E27.01145
G1 X155.052 Y173.166 E27.0141
G1 X154.769 Y174.237 E27.05094
G1 X154.912 Y176.192 E27.11614
G1 X154.902 Y177.193 E27.14943
G1 X154.806 Y177.212 E27.15269
G1 X154.816 Y177.234
G1 X155.302 Y178.231 E27.18958
G1 X156.168 Y181.192 E27.29219
G1 X155.939 Y181.575 E27.30703
G1 X157.389 Y184.026 E27.40175
G1 X157.471 Y184.13 E27.40615
G1 X157.937 Y184.605 E27.42828
G1 X159.561 Y186.243 E27.505
G1 X159.391 Y186.506 E27.51542
G1 X159.937 Y186.917 E27.53815
G1 X160.521 Y187.349 E27.56231
G1 X161.05 Y187.667 E27.58284
G1 X163.123 Y188.724 E27.66023
G1 X163.124 Y188.725 E27.66028
G1 X163.306 Y188.817 E27.66706
G1 X163.392 Y188.631 E27.67142
G1 X163.488 Y188.425 E27.67898
G1 X165.742 Y189.048 E27.75676
G1 X166.275 Y189.189 E27.7751
G1 X168.159 Y189.15 E27.83777
G1 X168.937 Y189.161 E27.86365
G1 X169.194 Y188.836 E27.87743
G1 X169.236 Y188.782 E27.87971
G1 X169.255 Y188.883 E27.88076
G1 X170.03 Y188.855 E27.90656
G1 X173.198 Y188.018 E28.01554
G1 X173.136 Y187.739 E28.02505
G1 X173.273 Y187.782 E28.02547
G1 X173.742 Y187.933 E28.04185
G1 X176.139 Y186.543 E28.13401
G1 X177.571 Y185.086 E28.20196
G1 X178.204 Y184.469 E28.23136
G1 X178.113 Y184.194 E28.24099
G1 X178.098 Y184.151 E28.24251
G1 X178.148 Y184.182
G1 X178.771 Y183.675 E28.26922
G1 X180.416 Y181.001 E28.37364
G1 X180.147 Y180.774 E28.38535
G1 X179.985 Y180.637 E28.39241
G1 X180.36 Y180.52 E28.40024
G1 X181.094 Y178.279 E28.47867
G1 X181.248 Y177.679 E28.49927
G1 X181.131 Y175.663 E28.56644
G1 X181.144 Y174.82 E28.59448
G1 X180.781 Y174.631 E28.60809
G1 X180.773 Y173.995 E28.62924
G1 X179.914 Y170.863 E28.73726
G1 X179.793 Y170.884 E28.74135
G1 X179.836 Y170.815
G1 X180.037 Y170.496 E28.75341
G1 X178.926 Y168.383 E28.83281
G1 X178.607 Y167.85 E28.85347
G1 X178.497 Y167.735 E28.85877
G1 X177.091 Y166.439 E28.92237
G1 X176.379 Y165.627 E28.95829
